!!!!SEGMENT: 065-1-BR-002.krn
!!!COM: Chopin, Frederic
!!!OTL: Sonata g-minor
!!!OPS: Op. 65
!!!PTL: SONATE | POUR | Piano et Violoncelle
!!!PPR: Schlesinger/Brandus
!!!PPP: Paris
!!!NIFC-rismID: 1001081079
!!!NIFC-shelfmark: PL-Wbfc M/158
!!!OMV: 2
**kern	**kern	**fing	**dynam	**kern	**fing	**dynam
*part2	*part2	*	*	*part1	*	*
*	*I"SCHERZO.	*	*	*	*	*
*staff3	*staff2	*	*	*staff1	*	*
*clefF4	*clefG2	*	*	*clefF4	*	*
*k[b-]	*k[b-]	*	*	*k[b-]	*	*
*M3/4	*M3/4	*	*	*M3/4	*	*
*kcancel	*kcancel	*	*	*kcancel	*	*
*	*	*	*	*cue	*	*
*>A	*>A	*>A	*>A	*>A	*	*>A
!	!	!	!	!	!	!LO:DY:rj
4r	4r	.	.	4A	.	f
=1	=1	=1	=1	=1	=1	=1
!	!	!	!LO:DY:rj	!	!	!
4D 4DD	4a'> 4f'> 4d'> 4A<'>	.	f	4A'>	.	.
4r	4r	.	.	(>\8AL	.	.
.	.	.	.	8B-J)	.	.
4r	4r	.	.	(>\8B-L	.	.
.	.	.	.	8AJ)	.	.
=2	=2	=2	=2	=2	=2	=2
4r	4r	.	.	(>\8AL	.	.
.	.	.	.	8d	.	.
4r	4r	.	.	8c#X	.	.
.	.	.	.	8dJ	.	.
4AA\ 4AAA\	4a'> 4g'> 4c#X'> 4A<'>	.	.	4e)^>	.	sf
=3	=3	=3	=3	=3	=3	=3
4D\ 4DD\	4a'> 4f'> 4d'> 4A<'>	.	.	4f'>	.	.
4r	4r	.	.	(>\8AL	.	[
.	.	.	.	8B-)	.	.
4r	4r	.	.	(>\8B-	.	.
.	.	.	.	8AJ)	.	.
=4	=4	=4	=4	=4	=4	=4
4r	4r	.	.	(>\8AL	.	.
.	.	.	.	8F	.	.
4r	4r	.	.	8E	.	.
.	.	.	.	8DJ	.	.
4E\ 4EE\	4e'> 4d'> 4G#X<'>	.	.	4E)	.	.
*ped	*	*	*	*	*	*
=5	=5	=5	=5	=5	=5	=5
*	*^	*	*	*	*	*
4E\ 4AA	4ryy	4e'> 4c#X'> 4A<'>	.	.	4AA'<	.	.
4r	(>2a^>	4rB	.	p	4r	.	.
*Xped	*	*	*	*	*clefG2	*	*
!	!	!	!	!	!	!	!LO:DY:rj
4A	.	4c#	.	.	(<4e	.	p
=6	=6	=6	=6	=6	=6	=6	=6
!	!LO:TUP:a	!	!	!	!	!	!
!	!LO:TX:t=P:stem-side tuplet number:problem	!	!	!	!	!	!
4A'> 4D'>	12aL	4d	.	.	4f)	.	.
.	12b-	.	.	.	.	.	.
.	12aJ	.	.	.	.	.	.
4r	8g#XL	4rA	.	.	(<2d	.	.
*ped	*	*	*	*	*	*	*
.	8bn	.	.	.	.	.	.
4A'> 4D'>	8dd	4f	.	.	.	.	.
*Xped	*	*	*	*	*	*	*
.	8ffJ	.	.	.	.	.	.
*	*v	*v	*	*	*	*	*
!!LO:LB:g=original
=7	=7	=7	=7	=7	=7	=7
4A'> 4AA'>	4ee'>\) 4cc#X'>\ 4e'>\	.	.	4a)	.	.
4r	4r	.	.	(<2e	.	.
4A 4AA	(>4a 4c#X	.	.	.	.	.
=8	=8	=8	=8	=8	=8	=8
*	*^	*	*	*	*	*
!	!LO:TUP:a	!	!	!	!	!	!
!	!LO:TX:t=P:stem-side tuplet number:problem	!	!	!	!	!	!
4D\	12aL	4d	.	.	4f)	.	.
.	12b-	.	.	<	.	.	.
.	12aJ	.	.	.	.	.	.
4r	8g#XL	4rB	.	.	(<2d	.	.
.	8bn	.	.	.	.	.	.
4A\ 4D\	8dd	4f	.	.	.	.	.
.	8ffJ	.	.	[[	.	.	.
*	*v	*v	*	*	*	*	*
=9	=9	=9	=9	=9	=9	=9
4A'> 4AA'>	4ee'>\) 4cc#X'>\ 4e'>\	.	.	2.a)	.	.
*clefG2	*8va	*	*	*	*	*
8aaL	(>8aaaL	.	.	.	.	.
8dd#X	8ddd#X	.	>	.	.	.
8ee	8eee	.	.	.	.	.
8ffJ	8fffJ	.	.	.	.	.
=10	=10	=10	=10	=10	=10	=10
8eeL	8eeem>L	.	.	(<2e	.	.
8a	8aa	.	.	.	.	.
8b-X	8bb-X	.	.	.	.	.
8ccny	8ccc	.	.	.	.	.
8b-	8bb-	.	.	4cc#X)	.	.
8g#XJ	8gg#XJ	.	]	.	.	.
!LO:TX:t=P:clef is on the barline:problem	!	!	!	!	!	!
*clefF4	*X8va	*	*	*	*	*
=11	=11	=11	=11	=11	=11	=11
8aL	8aaL	.	.	2.cc#X	.	.
8b-X	8bb-X	.	.	.	.	.
8a	8aa	.	.	.	.	.
8d#X	8dd#X	.	.	.	.	.
8e	8ee	.	.	.	.	.
8fJ	8ffJ	.	.	.	.	.
=12	=12	=12	=12	=12	=12	=12
8e>L	8eem>/L	.	.	2.rdd	.	.
8A	8a	.	.	.	.	.
8B-X	8b-X	.	.	.	.	.
8c	8cc	.	.	.	.	.
8B-	8b-	.	.	.	.	.
8G#XJ	8g#XJ	.	.	.	.	.
*	*	*	*	*clefF4	*	*
=13	=13	=13	=13	=13	=13	=13
4A 4AA	4a)	.	.	8A	.	.
.	.	.	.	8r	.	.
4r	4r	.	.	(>\8B-XL	.	.
.	.	.	.	8A	.	.
4r	4r	.	.	8c	.	.
.	.	.	.	8B-J	.	.
!!LO:LB:g=original
=14	=14	=14	=14	=14	=14	=14
4AA'< 4AAA'<	4a'< 4e'< 4c#X'<	.	p	8G)	.	.
.	.	.	.	8r	.	.
4r	4r	.	.	(>8A\L	.	.
.	.	.	.	8G	.	.
4r	4r	.	.	8B-	.	.
.	.	.	.	8AJ	.	.
=15	=15	=15	=15	=15	=15	=15
4AA'< 4AAA'<	4a'< 4d'< 4B-X'<	.	.	8F\)	.	.
.	.	.	.	8r	.	.
4r	4r	.	.	(>8G\L	.	.
.	.	.	.	8F	.	.
4r	4r	.	.	8A	.	.
.	.	.	.	8GJ	.	.
=16	=16	=16	=16	=16	=16	=16
4AA'< 4AAA'<	4a'< 4c#X'< 4A'<	.	.	8E)	.	.
.	.	.	.	8r	.	.
4r	4r	.	.	(>8F\L	.	<
.	.	.	.	8E	.	.
!	!	!	!LO:DY:rj	!	!	!
4AA	4a'> 4A<'>	.	f>	8G	.	.
.	.	.	.	8FJ	.	.
=17	=17	=17	=17	=17	=17	=17
4D 4DD	4a'> 4f'> 4d'> 4A<'>	.	]	8D)	.	[
.	.	.	.	8r	.	.
(>8AL	(<8aL	.	[	4r	.	.
8B-J	8b-J	.	.	.	.	.
8B-L	8b-L	.	.	4r	.	.
8AJ)	8aJ)	.	.	.	.	.
=18	=18	=18	=18	=18	=18	=18
(>8AL	(>8aL	.	.	4r	.	.
8d	8dd	.	<	.	.	.
8c#X	8cc#X	.	.	4r	.	.
8dJ)	8ddJ)	.	.	.	.	.
!	!	!	!	!	!	!LO:DY:rj
4A 4AA	4ee'> 4cc#'> 4a'> 4g'>	.	.	4A'> 4E'> 4AA'>	.	f
=19	=19	=19	=19	=19	=19	=19
4A 4D	4ff'> 4dd'> 4a'> 4f'>	.	[	4A'> 4D'>	.	.
(>8AL	(<8aL	.	[	4r	.	.
8B-J	8b-J	.	.	.	.	.
8B-L	8b-L	.	.	4r	.	.
8AJ)	8aJ)	.	.	.	.	.
=20	=20	=20	=20	=20	=20	=20
(>8AL	(<8aL	.	.	4r	.	.
8F	8f	.	.	.	.	.
8E	8e	.	.	4r	.	.
8DJ)	8dJ)	.	.	.	.	.
4E\ 4AA\	(>4e^< 4c 4A<	.	.	(>4E	.	.
!!LO:LB:g=original
=21	=21	=21	=21	=21	=21	=21
*	*^	*	*	*	*	*
4A 4E 4AA	4e'<) 4c'<	4rFyy	.	.	4c)	.	.
2D^<	(>2f#X	8cL	.	.	(>8A\L	.	.
.	.	8d	.	.	8B-)	.	.
.	.	8c	.	.	(>8B-	.	.
.	.	8dJ	.	.	8AJ	.	.
=22	=22	=22	=22	=22	=22	=22	=22
4GG	4g	8B-L	.	.	4G)	.	.
.	.	8d	.	.	.	.	.
2C^< 2CC	4d	8B-	.	.	(>8G\L	.	.
.	.	8c	.	.	8A)	.	.
.	4e	8B-	.	.	(>8A	.	.
.	.	8cJ	.	.	8GJ	.	.
=23	=23	=23	=23	=23	=23	=23	=23
4FF	4f	8A<L	.	.	4F)	.	.
.	.	8c<	.	.	.	.	.
2BBn^< 2BBBn	4c	8A<	.	.	(>8F\L	.	.
.	.	8Bn<	.	.	8G)	.	.
.	4d	8A<	.	.	(>8G	.	.
.	.	8B<J	.	.	8FJ	.	.
*	*v	*v	*	*	*	*	*
=24	=24	=24	=24	=24	=24	=24
*^	*	*	*	*	*	*
8G#XL	4EE	4e	.	.	4E)	.	.
8Bn	.	.	.	.	.	.	.
8Gn	2AA^< 2AAA	4Bn	.	.	(>8E\L	.	.
8A	.	.	.	.	8F)	.	.
8G	.	4c#X	.	.	(>8F	.	.
8AJ	.	.	.	.	8EJ	.	.
*v	*v	*	*	*	*	*	*
=25	=25	=25	=25	=25	=25	=25
*ped	*	*	*	*	*	*
4BB- 4BBB-	4d) 4F<	.	fz	2.D)	.	.
*clefG2	*8va	*	*	*	*	*
8bb-L	(>8bbb-L	.	.	.	.	.
8ee	8eee	.	>	.	.	.
8ff	8fff	.	.	.	.	.
8ggJ	8gggJ	.	.	.	.	.
=26	=26	=26	=26	=26	=26	=26
8ffL	8fffM>L	.	.	(>2c	.	<
8a	8aa	.	.	.	.	.
8b-	8bb-	.	.	.	.	.
8cc	8ccc	.	.	.	.	.
*	*X8va	*	*	*	*	*
8b-	8bb-	.	.	4B-)	.	.
8eJ	8eeJ	.	.	.	.	.
*	*	*	*	*clefG2	*	*
=27	=27	=27	=27	=27	=27	=27
*Xped	*	*	*	*	*	*
8f/L	8ffL	.	.	2.a-X	.	[
8g	8gg	.	.	.	.	.
8f	8ff	.	.	.	.	.
8A	8a	.	.	.	.	.
8B-	8b-	.	.	.	.	.
8cJ	8ccJ	.	.	.	.	.
*clefF4	*	*	*	*	*	*
!!LO:PB:g=original
=28	=28	=28	=28	=28	=28	=28
8B-L	8b-M<L	.	.	2.rdd	.	.
8En	8en	.	.	.	.	.
8F	8f	.	.	.	.	.
8GJ	8gJ	.	.	.	.	.
4F	4f)	.	]	.	.	.
=29	=29	=29	=29	=29	=29	=29
4r	4r	.	.	(<2.f^<	.	.
4r	4r	.	.	.	.	.
*ped	*	*	*	*	*	*
.	.	.	.	.	.	.
!	!	!	!LO:DY:rj	!	!	!
4BB-\ 4BBB-\	4b-'> 4d'> 4A-X<'>	.	f	.	.	.
=30	=30	=30	=30	=30	=30	=30
*Xped	*	*	*	*	*	*
4r	4r	.	.	4B-	.	.
*ped	*	*	*	*	*	*
4r	4r	.	.	4e-X	.	.
4E-X\ 4EE-X\	4g'> 4e-'> 4B-<'> 4G<'>	.	.	4d)	.	.
=31	=31	=31	=31	=31	=31	=31
*Xped	*	*	*	*	*	*
4r	4r	.	.	2.c#X	.	.
4En\ 4EEn\	4a 4g 4A<	.	.	.	.	.
4AA'< 4AAA'<	4aa'> 4gg'> 4a'>	.	.	.	.	.
=32	=32	=32	=32	=32	=32	=32
4r	4r	.	.	(<2.d	3	.
*ped	*	*	*	*	*	*
4A 4D	4dd'< 4f'< 4d'<	.	.	.	.	.
4D 4DD	4ddd'> 4ff'> 4dd'>	.	.	.	.	.
*Xped	*	*	*	*	*	*
.	.	.	.	.	.	.
=33	=33	=33	=33	=33	=33	=33
4DD'< 4DDD'<	4a'< 4f#X'< 4d'< 4c'<	.	.	4dd)	3 0	.
4r	4r	.	.	(<8dL	.	.
.	.	.	.	8e)	.	.
4r	4r	.	.	(<8e	.	.
.	.	.	.	8dJ)	.	.
=34	=34	=34	=34	=34	=34	=34
4r	4r	.	.	(<8dL	.	.
.	.	.	.	8g	.	.
4r	4r	.	.	8f#X	.	.
.	.	.	.	8gJ	.	.
4D 4DD	4a'< 4f#X'< 4d'< 4c'<	.	.	4a)	.	sf
=35	=35	=35	=35	=35	=35	=35
4G\ 4D\ 4GG\	4b-'< 4g'< 4d'< 4B-'<	.	.	4b-/	.	.
4r	4r	.	.	(<8dL	.	.
.	.	.	.	8e-y)	.	.
4r	4r	.	.	(<8e-	.	.
.	.	.	.	8dJ)	.	.
*	*	*	*	*clefF4	*	*
!!LO:LB:g=original
=36	=36	=36	=36	=36	=36	=36
4r	4r	.	.	(>\8dL	.	.
.	.	.	.	8B-	.	.
4r	4r	.	.	8A	.	.
.	.	.	.	8GJ)	.	.
4G\ 4D\ 4GG\	4b- 4g 4d 4B-	.	.	4B- 4D 4GG	.	.
=37	=37	=37	=37	=37	=37	=37
4E-X 4EE-X	4ee-X 4g 4e-X 4d-X	.	.	4E-X	.	.
(>8E-L	(<8e-L	.	.	4r	.	.
8F-X	8f-X	.	.	.	.	.
8F-	8f-	.	.	4r	.	.
8E-J	8e-J	.	.	.	.	.
=38	=38	=38	=38	=38	=38	=38
8E-XL	8e-XL	.	.	4r	.	.
8A-X	8a-X	.	.	.	.	.
8G	8g	.	.	4r	.	.
8A-J)	8a-J)	.	.	.	.	.
4E- 4EE-X	4b-'< 4g'< 4e-'< 4d-X'<	.	.	4EE-X	.	.
=39	=39	=39	=39	=39	=39	=39
4A-X 4E-X 4AA-X	4cc-X'< 4a-X'< 4e-X'< 4c-X'<	.	.	4E-X 4AA-X	.	.
8E-L	(>8e-L	.	.	4r	.	.
8F-X	8f-X	.	.	.	.	.
8F-	8f-	.	.	4r	.	.
8E-J	8e-J	.	.	.	.	.
=40	=40	=40	=40	=40	=40	=40
8E-X\L	8e-XL	.	.	4r	.	.
8C-X	8c-X	.	.	.	.	.
8BB-	8B-<	.	.	4r	.	.
8AA-X<J	8A-X<J)	.	.	.	.	.
!	!	!	!	!	!	!LO:DY:rj
4A-y 4AA-	4cc-X 4e- 4c-	.	.	4G#X	.	p
=41	=41	=41	=41	=41	=41	=41
!	!LO:TX:b:i:t=dolce.	!	!	!LO:TX:i:b:t=dolce.	!	!
*ped	*	*	*	*	*	*
4F#X 4FF#X	(<4dd#X 4f#X	.	>	(>4A#X	.	.
*Xped	*	*	*	*	*	*
4A#X 4F#	4cc#X 4e	.	.	4f#X)	.	.
4Bn 4F#	4bn 4d#X)	.	]	4f#	.	.]
=42	=42	=42	=42	=42	=42	=42
*	*^	*	*	*	*	*
!	!LO:TUP:a	!	!	!	!	!	!
!	!LO:TX:t=P:stem-side tuplet number:problem	!	!	!	!	!	!
4c#X 4F#X	(12bnL	4e	.	.	(>4f#X	.	.
.	12cc#X	.	.	.	.	.	.
.	12bJ	.	.	.	.	.	.
4r	8a#XL	4a#X	.	<	2c#X)	.	.
.	8cc#X	.	.	.	.	.	.
4F# 4FF#X	8ee	4g#X	.	.	.	.	.
.	8gg#XJ	.	.	[[	.	.	.
!!LO:LB:g=original
=43	=43	=43	=43	=43	=43	=43	=43
*ped	*	*	*	*	*	*	*
!LO:TX:t=P:pedalizacja przed nutą:problem	!	!	!	!	!	!	!
4FF#X 4FFF#X	4rdddyy	4ff#X'>) 4dd#X'> 4f#X'>	.	.	(>4d#X	.	.
4r	(>2bn^>	4rcyy	.	.	4g#X	.	.
*Xped	*	*	*	*	*	*	*
.	.	.	.	.	.	.	.
4Bn 4F#X	.	4d#X	.	.	4f#X)	.	.
=44	=44	=44	=44	=44	=44	=44	=44
!	!LO:TUP:a	!	!	!	!	!	!
!	!LO:TX:t=P:stem-side tuplet number:problem	!	!	!	!	!	!
4c#X 4F#X	12bnL	4e	.	.	(>4f#X	.	.
.	12cc#X	.	.	.	.	.	.
.	12bJ	.	.	.	.	.	.
4r	8a#XL	4a#X	.	<	2c#X)	.	.
.	8cc#	.	.	.	.	.	.
4F# 4FF#X	8ee	4a#	.	.	.	.	.
.	8aa#XJ	.	.	[[	.	.	.
*	*	*	*	*	*clefG2	*	*
*	*v	*v	*	*	*	*	*
=45	=45	=45	=45	=45	=45	=45
*ped	*	*	*	*	*	*
4BBn 4BBBn	4bbn'>) 4dd#X'> 4bn'>	.	fz>	2.d#X	.	.
*clefG2	*8va	*	*	*	*	*
8bbnL	(>8bbbL	.	.	.	.	.
8ee#X	8eee#X	.	.	.	.	.
8ff#X	8fff#X	.	.	.	.	.
8ggnJ	8gggnJ	.	.	.	.	.
=46	=46	=46	=46	=46	=46	=46
8ff#XL	8fff#Xt>L	.	.	(<2f#X	.	.
8bn	8bbn	.	.	.	.	.
8ccn	8cccn	.	.	.	.	.
8dd	8ddd	.	.	.	.	.
8cc	8ccc	.	.	4dd#X)	.	.
8a#XJ	8aa#XJ	.	.	.	.	.
*	*X8va	*	*	*	*	*
=47	=47	=47	=47	=47	=47	=47
8bn/L	8bbnL	.	.	2.dd#X	.	.
8cc	8ccc	.	.	.	.	.
8b	8bb	.	.	.	.	.
8e#X	8ee#X	.	.	.	.	.
8f#X	8ff#X	.	.	.	.	.
8gJ	8ggJ	.	.	.	.	.
=48	=48	=48	=48	=48	=48	=48
8f#XL	8ff#Xt>L	.	.	2.rdd	.	.
8Bn	8bn	.	.	.	.	.
8cn	8ccn	.	.	.	.	.
8d	8dd	.	.	.	.	.
8c	8cc	.	.	.	.	.
8A#XJ	8a#XJ	.	]	.	.	.
*clefF4	*	*	*	*clefF4	*	*
!!LO:LB:g=original
=49	=49	=49	=49	=49	=49	=49
4Bn	4bn)	.	.	8Bn	.	.
.	.	.	.	8r	.	.
4r	4r	.	.	(>\8cL	.	.
.	.	.	.	8B	.	.
4r	4r	.	.	8d	.	.
.	.	.	.	8cJ	.	.
=50	=50	=50	=50	=50	=50	=50
4BBn 4BBBn	4bn'< 4f#X'< 4d#X'<	.	.	8A)	.	.
.	.	.	.	8r	.	.
4r	4r	.	.	(>\8BnL	.	.
.	.	.	.	8A	.	.
4r	4r	.	.	8c	.	.
.	.	.	.	8BJ	.	.
=51	=51	=51	=51	=51	=51	=51
4BBn 4BBBn	4bn'< 4e'< 4c'<	.	.	8G)	.	.
.	.	.	.	8r	.	.
4r	4r	.	.	(>\8AL	.	.
.	.	.	.	8G	.	.
4r	4r	.	.	8Bn	.	.
.	.	.	.	8AJ	.	.
=52	=52	=52	=52	=52	=52	=52
4BBn'< 4BBBn'<	4bn'< 4d#X'< 4Bn'<	.	.	8F#X)	.	.
.	.	.	.	8r	.	.
4r	4r	.	.	(>\8GL	.	.
.	.	.	.	8F#	.	.
4r	4r	.	.	8A	.	.
.	.	.	.	8GJ	.	.
=53	=53	=53	=53	=53	=53	=53
*	*	*	*^	*	*	*
4E'< 4EE'<	4e'<	.	.	.	8E)	.	.
.	.	.	.	.	8r	.	.
4r	(>8ffL	.	>	.	4r	.	.
.	8ee	.	.	.	.	.	.
4r	8gg	.	.	.	4r	.	.
.	8ffJ	.	.	.	.	.	.
=54	=54	=54	=54	=54	=54	=54	=54
*	*	*	*	*	*	*	*^
!	!LO:S:s=1:note:problem:note-level slur	!	!	!	!	!	!	!
4E 4EE	4dd'<) 4bn'< 4f'<	.	]	.	2.G#X 2.BBn	.	<	.
!	!LO:TX:b:t=cresc _:problem:dynamics with extention lines 	!	!	!LO:HP:i:t=cresc:ext=ud	!	!	!	!
4r	(>8eeL	.	>	<	.	.	.	.
.	8dd	.	.	.	.	.	.	.
4r	8ff	.	.	.	.	.	.	.
.	8eeJ	.	.	.	.	.	.	.
=55	=55	=55	=55	=55	=55	=55	=55	=55
!	!LO:S:s=1:note:problem:note-level slur	!	!	!	!	!	!	!
4EE 4EEE	4cc'<) 4a'< 4f'<	.	]	.	2.A 2.C	.	.	.
4r	(>8ddL	.	>	.	.	.	.	<
.	8cc	.	.	.	.	.	.	.
4r	8ee	.	.	.	.	.	.	.
.	8ddJ	.	.	.	.	.	.	.
=56	=56	=56	=56	=56	=56	=56	=56	=56
!	!LO:S:s=1:note:problem:note-level slur	!	!	!	!	!	!	!
4E 4EE	4bn'<) 4g#X'< 4d'<	.	]	.	2.Bn 2.D	.	.	.
4r	(>8ccL	.	>	.	.	.	[	.
.	8b	.	.	.	.	.	.	.
4r	8dd	.	.	.	.	.	.	.
.	8ccJ	.	]	[[	.	.	.	.
*	*	*	*v	*v	*	*	*v	*v
!!LO:PB:g=original
=57	=57	=57	=57	=57	=57	=57
!	!	!LO:S:s=1:note:problem:note-level slur	!	!	!	!
2.E-X 2.EE-X	2.a^<) 2.g 2.c	.	.	4c'> 4E-X'>	.	.
.	.	.	.	(>\8AL	.	.
.	.	.	.	8Bn)	.	.
.	.	.	.	(>8B	.	.
.	.	.	.	8AJ)	.	.
=58	=58	=58	=58	=58	=58	=58
2.D 2.DD	[>2.cc^< 2.f#X	.	.	(>8D\L	.	.
.	.	.	.	8A	.	.
.	.	.	.	8G#X	.	.
.	.	.	.	8AJ	.	.
.	.	.	.	4d	.	.
=59	=59	=59	=59	=59	=59	=59
*	*^	*	*	*	*	*
!	!	!	!	!LO:HP:b=2	!	!	!
2D (<2DD	(>4cc]	2.fn	.	>	4G)	.	.
.	8b-XL	.	.	.	(>8G\L	.	.
.	8a	.	.	.	8A)	.	.
4D-X 4DD-X)	8cc	.	.	]	(>8A	.	.
.	8b-J	.	.	.	8GJ)	.	.
=60	=60	=60	=60	=60	=60	=60	=60
4C'< 4CC'<	2.b-)	(>4e	.	.	(>8G\L	.	.
.	.	.	.	.	8c	.	.
4r	.	8eL	.	.	8e	.	.
.	.	8d	.	.	8fJ	.	.
4En'< 4EEn'<	.	8d	.	.	4g	.	.
.	.	8cJ)	.	.	.	.	.
*	*v	*v	*	*	*	*	*
*	*	*	*	*clefG2	*	*
=61	=61	=61	=61	=61	=61	=61
*^	*	*	*	*	*	*
!	!	!	!	!LO:DY:rj	!	!	!LO:DY:rj
4rdyy	4F\ 4FF\	4a-X/ 4c/	.	fz	4a-X)	.	fz
2d-X^	4r	4r	.	.	(<8a-L	.	p
.	.	.	.	.	8b-J)	.	.
!	!	!	!	!LO:DY:rj	!	!	!
.	4A-X'>\ 4D-X'>\	(>4dd-X 4f	.	p	(<8b-L	.	.
.	.	.	.	.	8a-J)	.	.
*v	*v	*	*	*	*	*	*
=62	=62	=62	=62	=62	=62	=62
*	*^	*	*	*	*	*
!	!LO:TUP:a	!	!	!	!	!	!
!	!LO:TX:t=P:stem-side tuplet number:problem	!	!	!	!	!	!
4A-X'> 4E-X'>	12dd-XL	4g-X	.	.	(<4a-X	.	.
.	12ee-X	.	.	.	.	.	.
.	12dd-J	.	.	.	.	.	.
4r	8ccL	4cc	.	.	2e-X	.	.
.	8ee-	.	.	.	.	.	.
4A- 4AA-X	8gg-X	4b-	.	.	.	.	.
*ped	*	*	*	*	*	*	*
.	8bb-J	.	.	.	.	.	.
=63	=63	=63	=63	=63	=63	=63	=63
4AA-X 4AAA-X	4rdddyy	4aa-X) 4ff 4a-X	.	.	4f)	.	.
4r	(>2dd-X^>	4re	.	.	(<8a-XL	.	.
.	.	.	.	.	8b-J)	.	.
4d-X 4A-X	.	4f	.	.	(<8b-L	.	.
.	.	.	.	.	8a-J)	.	.
!!LO:LB:g=original
=64	=64	=64	=64	=64	=64	=64	=64
!	!LO:TUP:a	!	!	!	!	!	!
!	!LO:TX:t=P:stem-side tuplet number:problem	!	!	!	!	!	!
4e-X 4A-X	12dd-XL	4g-X	.	.	(<4a-X	.	.
.	12ee-X	.	.	.	.	.	.
.	12dd-J	.	.	.	.	.	.
4r	8ccL	4cc	.	<	8e-XL	.	.
.	8ee-	.	.	.	8g-X	.	.
4A-X 4AA-X	8gg-X	4cc	.	.	8f	.	.
.	8cccJ	.	.	.	8e-J	.	.
=65	=65	=65	=65	=65	=65	=65	=65
*ped	*	*	*	*	*	*	*
4D-X 4DD-X	4raaayy	4ddd-X) 4ff 4dd-X	.	[	4f)	.	.
*	*	*	*	*	*clefF4	*	*
!	!	!	!	!LO:DY:rj	!	!	!
4d-X 4D-	8cc-XL	4f	.	f	(>8A-X\L	.	.
.	8b-	.	.	.	8B-)	.	.
4d- 4D-	8dd-X	4f	.	.	(>8B-	.	f
.	8cc-J	.	.	.	8A-J)	.	.
*	*v	*v	*	*	*	*	*
=66	=66	=66	=66	=66	=66	=66
!	!LO:N:vis=2	!	!	!	!	!
2d-X 2A-X 2D-X	(>8bn/L 8f/	.	>	2A-X	.	.
.	8ff	.	.	.	.	.
.	8een	.	.	.	.	.
.	8ffJ	.	]	.	.	.
!	!	!	!LO:DY:rj	!	!	!
4c 4A- 4C	4aa-X'>) 4ff'> 4c'>c 4a-X'>	.	fz	4C	.	.
=67	=67	=67	=67	=67	=67	=67
!	!LO:N:vis=2	!	!	!	!	!
4r	(>8cc/L 8f/	.	>	2A-X	.	.
.	8ff	.	.	.	.	.
4r	8ee	.	.	.	.	.
.	8ffJ	.	]	.	.	.
!	!	!	!LO:HP:b=2	!	!	!
!LO:TX:b:t=P:diminuendolike accent:problem	!	!	!	!	!	!
[>4C-X^< [<4CC-X	4aa-X'>) 4dd-X'> 4a-X'>	.	fz	4C-X	.	.
=68	=68	=68	=68	=68	=68	=68
4C-X] 4CC-X]	(>8dd-XL 8f	.	.	4A-X	.	.
.	8ff	.	.	.	.	.
4BB- 4BBB-	8ee	.	.	4BB-	.	.
.	8ffJ	.	.	.	.	.
4BB- 4BBB-	4dddn) 4ff 4ddn	.	fz	8A-\L	.	.
.	.	.	.	8B-J	.	.
=69	=69	=69	=69	=69	=69	=69
8BB-L	4fff'> 4aa-X'> 4ff'>	.	.	4c-X	.	.
8AAAn	.	.	ff	.	.	.
8BBB-	(>8fff^<L 8ddd 8ff	.	.	2a-X\ 2Bn\	.	.
8BB-	8ggg 8eee-X 8gg	.	.	.	.	.
8AAA	8ggg 8eee- 8gg	.	.	.	.	.
8BBB-J	8fffJ 8ddd 8ff	.	.	.	.	.
=70	=70	=70	=70	=70	=70	=70
8BB-L	4eeen'>) 4ccc'> 4een'>	.	.	4g 4cn	.	.
8AAA	.	.	.	.	.	.
8BBB-	(>8eee-X^<L 8ccc 8ee-X	.	.	2f#X 2A	.	.
8BB-	8fff 8ddd 8ff	.	.	.	.	.
8AAA	8fff 8ddd 8ff	.	.	.	.	.
8BBB-J	8eee-J 8ccc 8ee-	.	.	.	.	.
!!LO:LB:g=original
=71	=71	=71	=71	=71	=71	=71
8BB-L	4ddd'>) 4bb-'> 4dd'>	.	.	4g 4B-	.	.
8AAA	.	.	.	.	.	.
!	!LO:TX:t=P:diminuendolike accent:problem	!	!	!	!	!
8BBB-	(>8bb-^<L 8gg 8b-	.	.	2c#X 2E	.	.
8BB-	8ccc 8aa-X 8cc	.	.	.	.	.
8AAA	8ccc 8aa- 8cc	.	.	.	.	.
8BBB-J	8bb-J 8gg 8b-	.	.	.	.	.
=72	=72	=72	=72	=72	=72	=72
8BB-L	4aa-X'>) 4ff'> 4a-X'>	.	.	4d 4F	.	.
8AAAn	.	.	.	.	.	.
!	!LO:TX:t=P:diminuendolike accent:problem	!	!	!	!	!
8BBB-	(>8ff^<L 8dd 8f	.	.	2d 2F	.	.
8BB-	8gg 8ee-X 8g	.	.	.	.	.
(<8GGG	8gg 8ee- 8g	.	.	.	.	.
8GGG#XJ	8ffJ) 8dd 8f	.	.	.	.	.
=73	=73	=73	=73	=73	=73	=73
!	!LO:TX:t=P:diminuendolike accent:problem	!	!	!	!	!
4AA'< 4AAA'<)	8ff^<L 8cc#X 8f	.	.	4A	.	.
.	8eenJ 8e	.	.	.	.	.
8c#X>L	(>8eL	.	>	2A 2E 2AA	.	.
8d>	8b- 8f	.	.	.	.	.
8d>	8b- 8f	.	]	.	.	.
8c#>J	8aJ 8e)	.	.	.	.	.
=74	=74	=74	=74	=74	=74	=74
*	*	*	*	*^	*	*
*	*	*	*	*	*cue	*	*
*ped	*	*	*	*	*	*	*
(>8BnL	(>8dL	.	.	2A	(>4F	.	.
8F	8g#X 8f	.	.	.	.	.	.
8B	8d	.	.	.	4D)	.	.
8DJ	8bnJ 8g#	.	.	.	.	.	.
4AA)	4ff)	.	.	4reyy	4A 4D 4AA	.	.
*Xped	*	*	*	*	*	*	*
.	.	.	.	.	.	.	.
*	*	*	*	*v	*v	*	*
=75	=75	=75	=75	=75	=75	=75
!	!	!	!	!LO:TX:t=P:vertical slur from 4AA to 4c#:problem	!	!
*ped	*	*	*	*	*	*
4AA'< 4AAA'<	4ee'>\ 4a'>\ \4e'>	.	.	4c#X 4E 4AA	.	.
(>8c#X'>L	8aL (<8e	.	.	2A 2E 2AA	.	.
8d	8b- 8f	.	.	.	.	.
*Xped	*	*	*	*	*	*
8d	8b- 8f	.	.	.	.	.
8c#J)	8aJ 8e)	.	.	.	.	.
=76	=76	=76	=76	=76	=76	=76
*	*	*	*	*^	*	*
*ped	*	*	*	*	*	*	*
(>8BnL	(>8dL	.	>	2A	(>4F	.	.
8F	8g#X 8fn	.	.	.	.	.	.
8B	8d	.	]	.	4D)	.	.
8DJ	8bnJ 8g#	.	.	.	.	.	.
4AA)	4ffn)	.	.	4rfyy	4A 4D 4AA	.	.
*Xped	*	*	*	*	*	*	*
.	.	.	.	.	.	.	.
*	*	*	*	*v	*v	*	*
=77	=77	=77	=77	=77	=77	=77
(<8g#X>L	(>8bnL	.	>	2.f	.	.
8f>	8ff 8dd	.	.	.	.	.
8g#>	8b	.	.	.	.	.
8d>J	8ffJ 8dd	.	]	.	.	.
4A)	4bbn/)	.	>	.	.	.
!!LO:LB:g=original
=78	=78	=78	=78	=78	=78	=78
*ped	*	*	*	*	*	*
(<8bn>L	(>8dd/L	.	>	(>2e	.	.
8f>	8gg#X 8ff	.	.	.	.	.
8b>	8dd	.	]	.	.	.
8d>J	8gg#J 8ff	.	.	.	.	.
4A)	4ddd/)	.	.	4d)	.	.
*Xped	*	*	*	*	*	*
.	.	.	.	.	.	.
=79	=79	=79	=79	=79	=79	=79
!	!	!	!	!LO:TX:b:t=dim _:problem:dynamics with extention lines 	!	!LO:HP:i:t=dim:ext=ud
*ped	*	*	*	*	*	*
(<8dd>L	(>8ff/L	.	>	(>4c#X	.	>
8g#X>	8ddd 8gg#X	.	.	.	.	.
8dd>	8ff	.	.	4cn	.	.
8f>J	8dddJ 8gg#	.	]	.	.	.
4d>)	4fff/)	.	.	4B-X)	.	.
*Xped	*	*	*	*	*	*
.	.	.	.	.	.	.
=80	=80	=80	=80	=80	=80	=80
2.rF	2.rdd	.	.	(>4E	.	.
.	.	.	.	4F	.	.
.	.	.	.	4D)	.	]]
=81	=81	=81	=81	=81	=81	=81
2.rF	2.rdd	.	.	4AA	.	.
!	!	!	!	!	!	!LO:DY:rj
.	.	.	.	(<8AAL	.	p
.	.	.	.	8BB-J)	.	.
.	.	.	.	(<8BB-L	.	.
.	.	.	.	8AAJ)	.	.
*clefG2	*	*	*	*	*	*
=82	=82	=82	=82	=82	=82	=82
*	*8va	*	*	*	*	*
!	!	!	!LO:DY:rj	!	!	!
(>8eeL	(>\8ggL	.	p>	2.rF	.	.
8b-	8eee 8ccc#X	.	.	.	.	.
8ee	8gg	.	.	.	.	.
8gJ	8eeeJ 8ccc#	.	]	.	.	.
4c#X)	4bbb-X)	.	.	.	.	.
=83	=83	=83	=83	=83	=83	=83
*ped	*	*	*	*	*	*
(>8dd#XL	(>8ff#X\L	.	>	2.rF	.	.
8a	8ddd#X 8cccn	.	.	.	.	.
8dd#	8ff#	.	.	.	.	.
8f#XJ	8ddd#J 8ccc	.	]	.	.	.
4c)	4aaa)	.	.	.	.	.
*Xped	*	*	*	*	*	*
.	.	.	.	.	.	.
=84	=84	=84	=84	=84	=84	=84
*ped	*	*	*	*	*	*
(>8cc\L	(>8dd#XL	.	>	2.rF	.	.
8f#X	8ccc 8aa	.	.	.	.	.
8cc	8dd#	.	.	.	.	.
8d#XJ	8cccJ 8aa	.	]	.	.	.
4A)	4fff#X)	.	.	.	.	.
*Xped	*X8va	*	*	*	*	*
.	.	.	.	.	.	.
=85	=85	=85	=85	=85	=85	=85
2.rdd	2.rdd	.	.	4AA'<	.	.
.	.	.	.	(<8AAL	.	.
.	.	.	.	8BB-J)	.	.
.	.	.	.	(<8BB-L	.	>
.	.	.	.	8AAJ)	.	]
!!LO:LB:g=original
=86	=86	=86	=86	=86	=86	=86
*ped	*8va	*	*	*	*	*
!	!	!	!LO:DY:rj	!	!	!
(>8dd\L	(>8ff\L	.	pp>	2.rF	.	.
8g#X	8ddd 8bbn	.	.	.	.	.
8dd	8ff	.	.	.	.	.
8fJ	8dddJ 8bb	.	.	.	.	.
4Bn)	4ggg#X)	.	]	.	.	.
*Xped	*	*	*	*	*	*
.	.	.	.	.	.	.
=87	=87	=87	=87	=87	=87	=87
*ped	*	*	*	*	*	*
!	!LO:TX:b:i:t=smorz.	!	!	!	!	!
(>\8cc#XL	(>8eeL	.	>	2.rF	.	.
8gn	8ccc#X 8bb-X	.	.	.	.	.
8cc#	8ee	.	.	.	.	.
8enJ	8ccc#J 8bb-	.	.	.	.	.
4B-X)	4gggn)	.	]	.	.	.
*Xped	*X8va	*	*	*	*	*
.	.	.	.	.	.	.
=88	=88	=88	=88	=88	=88	=88
*ped	*	*	*	*	*	*
(<8b-L	(>8cc#XL	.	>	2.rF	.	.
8e	8bb- 8gg	.	.	.	.	.
8b-	8cc#	.	.	.	.	.
8c#XJ	8bb-J 8gg	.	.	.	.	.
8G)	8eee)	.	]	.	.	.
*Xped	*	*	*	*	*	*
8r	8r	.	.	.	.	.
*clefF4	*	*	*	*	*	*
=89	=89	=89	=89	=89	=89	=89
!	!	!	!LO:DY:rj	!	!	!
4AA\ 4AAA\	4a'>^< 4e^< 4A<^< 4G<^<	.	f	4A	.	f
4r	4r	.	.	(>\8AL	.	.
.	.	.	.	8B-)	.	.
4r	4r	.	.	(>8B-	.	.
.	.	.	.	8AJ)	.	.
=90	=90	=90	=90	=90	=90	=90
4r	4r	.	.	(>8A\L	.	.
.	.	.	.	8d	.	.
4r	4r	.	.	8c#X	.	.
.	.	.	.	8dJ	.	.
!	!	!	!	!	!	!LO:DY:rj
4AA\ 4AAA\	4a'> 4g'> 4c#X'> 4A<'>	.	.	4e)^<	.	sf
=91	=91	=91	=91	=91	=91	=91
4D\ 4DD\	4a'> 4f'> 4d'> 4A<'>	.	.	4f'>	.	.
4r	4r	.	.	(>8A\L	.	.
.	.	.	.	8B-)	.	.
4r	4r	.	.	(>8B-	.	.
.	.	.	.	8AJ)	.	.
=92	=92	=92	=92	=92	=92	=92
4r	4r	.	.	(>8A\L	.	.
.	.	.	.	8F	.	.
4r	4r	.	.	8En	.	.
.	.	.	.	8DJ	.	.
4E\ 4EE\	4e'> 4d'> 4G#X<'>	.	.	4E)	.	.
!!LO:PB:g=original
=93	=93	=93	=93	=93	=93	=93
*	*^	*	*	*	*	*
4AA\	4e'> 4c#X'> 4A<'>	4ryy	.	.	4AA'<	.	.
4r	(>2a^>	4rA	.	.	4r	.	.
*	*	*	*	*	*clefG2	*	*
!	!	!	!	!LO:DY:rj	!	!	!
4A	.	4c#	.	p	(<4e	.	p
=94	=94	=94	=94	=94	=94	=94	=94
!	!LO:TUP:a	!	!	!	!	!	!
!	!LO:TX:t=P:stem-side tuplet number:problem	!	!	!	!	!	!
4A 4D	12aL	4d	.	.	4f)	.	.
.	12b-	.	.	.	.	.	.
.	12aJ	.	.	.	.	.	.
4r	8g#XL	4rA	.	.	(<2d	.	.
.	8bn	.	.	.	.	.	.
4A 4AA	8dd	4f	.	.	.	.	.
.	8ffJ	.	.	.	.	.	.
*	*v	*v	*	*	*	*	*
=95	=95	=95	=95	=95	=95	=95
4A 4AA	4ee\) 4cc#X\ 4e\	.	.	4a)	.	.
4r	4r	.	.	(<2e	.	.
4A 4AA	(>4a 4c#X	.	.	.	.	.
=96	=96	=96	=96	=96	=96	=96
*	*^	*	*	*	*	*
!	!LO:TUP:a	!	!	!	!	!	!
!	!LO:TX:t=P:stem-side tuplet number:problem	!	!	!	!	!	!
4A 4D	12aL	4d	.	.	4f)	.	.
.	12b-	.	.	.	.	.	.
.	12aJ	.	.	.	.	.	.
4r	8g#XL	4g#	.	<	(<2d	.	.
.	8bn	.	.	.	.	.	.
4A 4D	8dd	4f	.	.	.	.	.
.	8ffJ	.	.	[	.	.	.
*	*v	*v	*	*	*	*	*
=97	=97	=97	=97	=97	=97	=97
!	!	!	!LO:DY:rj	!	!	!
4A 4AA	4ee\) 4cc#X\ 4e\	.	f	2.a)	.	<
*clefG2	*8va	*	*	*	*	*
8aaL	(>8aaaL	.	.	.	.	.
8dd#X	8ddd#X	.	>	.	.	.
8ee	8eee	.	.	.	.	.
8ffJ	8fffJ	.	.	.	.	.
=98	=98	=98	=98	=98	=98	=98
8eeL	8eeem>L	.	.	(>2e	.	.
8a	8aa	.	.	.	.	.
8b-	8bb-	.	.	.	.	.
8cc	8ccc	.	.	.	.	.
8b-	8bb-	.	.	4cc#X)	.	.
.	.	.	.	.	.	[
8g#XJ	8gg#XJ	.	.	.	.	.
*	*X8va	*	*	*	*	*
=99	=99	=99	=99	=99	=99	=99
8aL	8aaL	.	.	2.cc#X	.	[[
8b-	8bb-	.	.	.	.	.
8a	8aa	.	.	.	.	.
8d#X	8dd#X	.	.	.	.	.
8e	8ee	.	.	.	.	.
8fJ	8ffJ	.	.	.	.	.
*clefF4	*	*	*	*clefF4	*	*
!!LO:LB:g=original
=100	=100	=100	=100	=100	=100	=100
8eL	8eem>L	.	.	2.rF	.	.
8A	8a	.	.	.	.	.
8B-	8b-	.	.	.	.	.
8c	8cc	.	.	.	.	.
8B-	8b-	.	.	.	.	.
8G#XJ	8g#XJ	.	]	.	.	.
=101	=101	=101	=101	=101	=101	=101
4A 4AA	4a'<)	.	.	8A	.	.
.	.	.	.	8r	.	.
4r	4r	.	.	(>8B-\L	.	.
.	.	.	.	8A	.	.
4r	4r	.	.	8c	.	.
.	.	.	.	8B-J	.	.
=102	=102	=102	=102	=102	=102	=102
!	!	!	!LO:DY:rj	!	!	!
4AA'> 4AAA'>	4a'< 4e'< 4c#X'<	.	p	8G)	.	.
.	.	.	.	8r	.	.
4r	4r	.	.	(>8A\L	.	.
.	.	.	.	8G	.	.
4r	4r	.	.	8B-	.	.
.	.	.	.	8AJ	.	.
=103	=103	=103	=103	=103	=103	=103
4AA'> 4AAA'>	4a'< 4d'< 4B-'<	.	.	8F)	.	.
.	.	.	.	8r	.	.
4r	4r	.	.	(>8G\L	.	.
.	.	.	.	8F	.	.
4r	4r	.	.	8A	.	.
.	.	.	.	8GJ	.	.
=104	=104	=104	=104	=104	=104	=104
4AA'> 4AAA'>	4a'< 4c#X'< 4A'<	.	.	8E)	.	.
.	.	.	.	8r	.	.
4r	4r	.	.	(>8F\L	.	<
.	.	.	.	8E	.	.
!	!	!	!LO:DY:rj	!	!	!
4AA'>	4a'< 4A'<	.	f	8G	.	.
.	.	.	.	8FJ	.	[[
=105	=105	=105	=105	=105	=105	=105
!	!	!	!LO:DY:rj	!	!	!
4D\ 4DD\	4a'> 4f'> 4d'> 4A<'>	.	f	4D)	.	f
8AL	8aL	.	.	4r	.	.
8B-	8b-	.	.	.	.	.
8B-	8b-	.	.	4r	.	.
8AJ	8aJ	.	.	.	.	.
=106	=106	=106	=106	=106	=106	=106
8AL	8aL	.	.	4r	.	.
8d	8dd	.	.	.	.	.
8c#X	8cc#X	.	.	4r	.	.
8dJ	8ddJ	.	.	.	.	.
!	!	!	!	!LO:TX:t=P:vertical slur from 4AA to 4A:problem	!	!
4A 4AA	4ee'> 4cc#'> 4a'> 4g'>	.	.	4A 4E 4AA	.	.
!!LO:LB:g=original
=107	=107	=107	=107	=107	=107	=107
!	!	!	!	!LO:TX:t=P:vertical slur:problem	!	!
4A 4D	4ff'> 4dd'> 4a'> 4f'>	.	.	4A 4D	.	.
8AL	8a/L	.	.	4r	.	.
8B-	8b-	.	.	.	.	.
8B-	8b-	.	.	4r	.	.
8AJ	8aJ	.	.	.	.	.
=108	=108	=108	=108	=108	=108	=108
8AL	8aL	.	.	4r	.	.
8F	8f	.	.	.	.	.
8E	8e	.	.	4r	.	.
8DJ	8dJ	.	.	.	.	.
4E 4AA	4e'> 4c^<'> 4A<'>	.	.	(>4E	.	.
=109	=109	=109	=109	=109	=109	=109
*	*^	*	*	*	*	*
4E 4AA	4e'> 4c'> 4A<'>	4rddyy	.	.	4c)	.	.
2D^>	(>2f#X	8cL	.	.	(>\8AL	.	.
.	.	8d	.	.	8B-X)	.	.
.	.	8c	.	.	(>8B-	.	.
.	.	8dJ	.	.	8AJ	.	.
=110	=110	=110	=110	=110	=110	=110	=110
4GG	4g	8B-L	.	.	4G)	.	.
.	.	8d	.	.	.	.	.
2C^< 2CC	4d	8B-	.	.	(>8G\L	.	.
.	.	8c	.	.	8A)	.	.
.	4e	8B-	.	.	(>8A	.	.
.	.	8cJ	.	.	8GJ	.	.
*	*v	*v	*	*	*	*	*
=111	=111	=111	=111	=111	=111	=111
*^	*	*	*	*	*	*
8AL	4FF	4f	.	.	4F)	.	.
8c	.	.	.	.	.	.	.
8A	2BBn^< 2BBBn	4c	.	.	(>8F\L	.	.
8Bn	.	.	.	.	8G)	.	.
8A	.	4d	.	.	(>8G	.	.
8BJ	.	.	.	.	8FJ	.	.
=112	=112	=112	=112	=112	=112	=112	=112
8G#XL	4EE	4e	.	.	4E)	.	.
8Bn	.	.	.	.	.	.	.
8Gn	2AA^< 2AAA	4Bn	.	.	(>8E\L	.	.
8A	.	.	.	.	8F)	.	.
8G	.	4c#X	.	.	(>8F	.	.
8AJ	.	.	.	.	8EJ	.	.
*v	*v	*	*	*	*	*	*
=113	=113	=113	=113	=113	=113	=113
!	!	!	!LO:DY:rj	!	!	!
4BB-\ 4BBB-\	4d)'> 4F<'>	.	fz	2.D)	.	.
*clefG2	*8va	*	*	*	*	*
8bb-L	(>8bbb-L	.	>	.	.	.
8een	8eeen	.	.	.	.	.
8ff	8fff	.	.	.	.	.
8ggJ	8gggJ	.	.	.	.	.
!!LO:LB:g=original
=114	=114	=114	=114	=114	=114	=114
8ffL	8fffM>L	.	.	(>2c	.	<
8a	8aa	.	.	.	.	.
8b-	8bb-	.	.	.	.	.
8cc	8ccc	.	.	.	.	.
8b-	8bb-	.	.	4B-)	.	.
8eJ	8eeJ	.	.	.	.	.
*	*X8va	*	*	*clefG2	*	*
=115	=115	=115	=115	=115	=115	=115
8fL	8ffL	.	.	2.a-X	.	[
8g	8gg	.	.	.	.	.
8f	8ff	.	.	.	.	.
*clefF4	*	*	*	*	*	*
8A	8a	.	.	.	.	.
8B-	8b-	.	.	.	.	.
8cJ	8ccJ	.	.	.	.	.
=116	=116	=116	=116	=116	=116	=116
8B-L	8b-M<L	.	.	2.rdd	.	.
8E	8e	.	.	.	.	.
8F	8f	.	.	.	.	.
8GJ	8gJ	.	.	.	.	.
4F	4f)	.	]	.	.	.
=117	=117	=117	=117	=117	=117	=117
4r	4r	.	.	(<2.f	.	.
4r	4r	.	.	.	.	.
4BB-\ 4BBB-\	4b-X'> 4d'> 4A-X<'>	.	.	.	.	.
=118	=118	=118	=118	=118	=118	=118
4r	4r	.	.	4B-	.	.
4r	4r	.	.	4e-X	.	.
4E-X\ 4EE-X\	4g'> 4B-<'> 4G<'>	.	.	4d)	.	.
=119	=119	=119	=119	=119	=119	=119
*	*	*	*^	*	*	*
4r	4r	.	<	.	(<2.c#X	.	.
*ped	*	*	*	*	*	*	*
!	!LO:TX:b:t=cresc _:problem:dynamics with extention lines	!	!	!LO:HP:i:t=cresc:ext=ud	!	!	!
4En\ 4EEn\	4a'> 4g'> 4A<'>	.	.	<	.	.	.
4AA 4AAA	4aa'> 4gg'> 4a'>	.	.	.	.	.	<
*Xped	*	*	*	*	*	*	*
=120	=120	=120	=120	=120	=120	=120	=120
4r	4r	.	.	.	2.d#X)	.	.
*ped	*	*	*	*	*	*	*
4F#X'< 4FF#X'<	4a'< 4c'< 4A'<	.	.	.	.	.	.
4AA'< 4AAA'<	4aa'> 4cc'> 4a'>	.	.	.	.	.	.
*Xped	*	*	*	*	*	*	*
.	.	.	.	.	.	.	.
=121	=121	=121	=121	=121	=121	=121	=121
4r	4r	.	.	.	2.e	.	[
*ped	*	*	*	*	*	*	*
4G'>\ 4GG'>\	4b-'< 4c#X'< 4B-'<	.	.	.	.	.	.
4AA'< 4AAA'<	4bb-'> 4cc#X'> 4b-'>	.	[	[[	.	.	.
*Xped	*	*	*	*	*	*	*
*	*	*	*v	*v	*	*	*
=122	=122	=122	=122	=122	=122	=122
2.rF	2.rdd	.	.	(<4B-	.	.
.	.	.	.	4e	.	.
.	.	.	.	4d#X)	.	.
!	!	!	!	!LO:CL:ed	!	!
*	*	*	*	*clefG2	*	*
!!LO:LB:g=original
=123	=123	=123	=123	=123	=123	=123
*	*	*	*^	*	*	*
4r	4r	.	.	.	2.e	.	<
*ped	*	*	*	*	*	*	*
!	!LO:TX:b:t=cresc _:problem:dynamics with extention lines	!	!LO:HP:i:t=cresc:ext=ud	!	!	!	!
4G'>\ 4GG'>\	4b-'< 4c#X'< 4B-'<	.	<	.	.	.	.
4AA' 4AAA'<	4bb-'> 4cc#X'> 4b-'>	.	.	.	.	.	.
*Xped	*	*	*	*	*	*	*
=124	=124	=124	=124	=124	=124	=124	=124
4r	4r	.	.	.	2.fn	.	.
*ped	*	*	*	*	*	*	*
4G#X'>\ 4GG#X'>\	4b-'< 4d'< 4B-'<	.	.	.	.	.	.
4AA'< 4AAA'<	4bb-'> 4dd'> 4b-'>	.	.	.	.	.	.
*Xped	*	*	*	*	*	*	*
=125	=125	=125	=125	=125	=125	=125	=125
4r	4r	.	.	.	2.f#X	.	[
*ped	*	*	*	*	*	*	*
4A'> 4AA'>	4bn'< 4d#X'< 4Bn'<	.	.	.	.	.	.
4AA'< 4AAA'<	4bbn'> 4dd#X'> 4b'>	.	[	.	.	.	.
*Xped	*	*	*	*	*	*	*
*	*	*	*v	*v	*	*	*
=126	=126	=126	=126	=126	=126	=126
2.rF	2.rdd	.	.	(<4Bn	.	<
.	.	.	.	4f#X	.	.
.	.	.	.	4e#X)	.	.
=127	=127	=127	=127	=127	=127	=127
4r	4r	.	.	2.f#X	.	[
*ped	*	*	*	*	*	*
!	!LO:TX:b:t=cresc _:problem:dynamics with extention lines	!	!LO:HP:i:t=cresc:ext=ud	!	!	!
4A'> 4AA'>	4cc'< 4d#X'< 4c'<	.	<	.	.	.
4AA'< 4AAA'<	4ccc'> 4dd#X'> 4cc'>	.	.	.	.	.
*Xped	*	*	*	*	*	*
=128	=128	=128	=128	=128	=128	=128
!	!	!	!	!LO:TX:b:t=cresc _:problem:dynamics with extention lines	!	!LO:HP:i:t=cresc:ext:ud
4r	4r	.	.	2.g	.	<
*ped	*	*	*	*	*	*
4B-X'> 4BB-X'>	4cc'< 4e'< 4c'<	.	.	.	.	.
4AA'< 4AAA'<	4ccc'> 4ee'> 4cc'>	.	.	.	.	.
*Xped	*	*	*	*	*	*
.	.	.	.	.	.	.
=129	=129	=129	=129	=129	=129	=129
4r	4r	.	.	2.g#X	.	.
*ped	*	*	*	*	*	*
4Bn'> 4BBn'>	4cc#X'< 4e#X'< 4c#X'<	.	.	.	.	.
4AA'< 4AAA'<	4ccc#X'> 4ee#X'> 4cc#'>	.	.	.	.	.
*Xped	*	*	*	*	*	*
.	.	.	.	.	.	.
=130	=130	=130	=130	=130	=130	=130
4r	4r	.	.	(<2.a	.	.
4A' 4AA	4cc#X'< 4f#X'< 4c#X'<	.	[<	.	.	.
*	*ped	*	*	*	*	*
!	!LO:S:s=1:note:problem:note-level slur	!	!	!	!	!
4AA'< 4AAA'<	(>4ccc#X/ 4cc#/	.	.	.	.	.
=131	=131	=131	=131	=131	=131	=131
4a> 4e> 4A	4eee/) 4gg/	.	.	4cc#X/)	.	[f
.	.	.	[	.	.	.
*	*Xped	*	*	*	*	*
4r	4r	.	.	4bn/	.	.
4r	4r	.	.	4a/	.	.
=132	=132	=132	=132	=132	=132	=132
2.rF	2.rdd	.	.	(<4g	.	.
.	.	.	.	4d	.	.
.	.	.	.	4e)	.	.
!!LO:PB:g=original
=133||	=133||	=133||	=133||	=133||	=133||	=133||
*k[f#c#]	*k[f#c#]	*	*	*k[f#c#]	*	*
!	!	!	!	!LO:TX:a:i:t=cantabile.	!	!
2.DD\	8r	.	p	(<2.f#	.	.
.	(>8A</L	.	.	.	.	.
.	8d	.	.	.	.	.
.	8F#<	.	.	.	.	.
.	8A<	.	.	.	.	.
.	8D<J)	.	.	.	.	.
=134	=134	=134	=134	=134	=134	=134
2.D	8r	.	.	2.g#X)	.	.
.	(>8B<L	.	.	.	.	.
.	8fn	.	.	.	.	.
.	8G#X<	.	.	.	.	.
.	8B	.	.	.	.	.
.	8Fn<J)	.	.	.	.	.
=135	=135	=135	=135	=135	=135	=135
2C#\	8r	.	.	(<4b/	.	.
.	(>8E<L	.	.	.	.	.
.	8e	.	.	4a	.	.
.	8A<	.	.	.	.	.
4D	8B<	.	.	4g#X)	.	.
.	8fnJ)	.	.	.	.	.
=136	=136	=136	=136	=136	=136	=136
2C#\	8r	.	.	(<2b/	.	.
.	(>8E<L	.	.	.	.	.
.	8A<	.	.	.	.	.
.	8e	.	.	.	.	.
4CC#\	8e	.	.	4a)	.	.
.	8E<J)	.	.	.	.	.
=137	=137	=137	=137	=137	=137	=137
2.CCn\	8rc<	.	.	(<2.e	.	.
.	(>8G<L	.	.	.	.	.
.	8cn<	.	.	.	.	.
.	8E<	.	.	.	.	.
.	8G<	.	.	.	.	.
.	8Cn<J)	.	.	.	.	.
=138	=138	=138	=138	=138	=138	=138
2.Cn\	8r	.	.	2.f#)	.	.
.	(>8A<L	.	.	.	.	.
.	8e-X	.	.	.	.	.
.	8F#<	.	.	.	.	.
.	8A<	.	.	.	.	.
.	8E-X<J)	.	.	.	.	.
!!LO:LB:g=original
=139	=139	=139	=139	=139	=139	=139
!	!	!	!	!LO:TX:a:i:t=legato.	!	!
2BB\	8r	.	.	(<4a	.	.
.	(>8D<L	.	.	.	.	.
.	8d	.	.	4g	.	.
.	8G<	.	.	.	.	.
4Cn\	8A<	.	.	4f#)	.	.
.	8e-XJ)	.	.	.	.	.
=140	=140	=140	=140	=140	=140	=140
2BB\	8r	.	.	(<2a	.	.
.	(>8D<L	.	.	.	.	.
.	8G<	.	.	.	.	.
.	8d	.	.	.	.	.
4BBB\	8d	.	.	4g)	.	.
.	8D<J)	.	.	.	.	.
*	*	*	*	*clefF4	*	*
=141	=141	=141	=141	=141	=141	=141
2.GGG\	8r	.	.	2.B	.	.
.	(>8D<L	.	.	.	.	.
.	8G<	.	.	.	.	.
.	8d	.	.	.	.	.
.	8D<	.	.	.	.	.
.	8G<J)	.	.	.	.	.
=142	=142	=142	=142	=142	=142	=142
2.GG\	(>8D<L	.	.	(>2c#	.	.
.	8G<	.	.	.	.	.
.	8B<	.	.	.	.	.
.	8d	.	.	.	.	.
.	8D<	.	.	4B)	.	.
.	8G<J)	.	.	.	.	.
=143	=143	=143	=143	=143	=143	=143
!	!	!	!LO:DY:a	!	!	!
2.FF#\	8r	.	.	(>4A	.	<
.	(>8D<L	.	.	.	.	.
.	8A<	.	<	4B	.	.
.	8d	.	.	.	.	.
.	8D<	.	.	4c#)	.	.
.	8A<J)	.	.	.	.	.
=144	=144	=144	=144	=144	=144	=144
2.BBB\	8r	.	.	(>4d	.	.
.	(>8D<L	.	.	.	.	.
.	8A<	.	.	4e	.	.
.	8d	.	.	.	.	.
.	8D<	.	.	4f#)	.	.
.	8A<J)	.	[	.	.	[[
*	*	*	*	*clefG2	*	*
=145	=145	=145	=145	=145	=145	=145
[>2.EE\	8r	.	.	(>4e	.	.
.	(>8A<L	.	.	.	.	.
.	8e	.	>	4cc#	.	.
.	8E<	.	.	.	.	.
.	8A<	.	.	4dd)	.	.
.	8f#J	.	.	.	.	.
!!LO:LB:g=original
=146	=146	=146	=146	=146	=146	=146
2.EE\] 2.EEE\	8eL	.	.	(<4cc#/	.	.
.	8G#X<	.	.	.	.	.
.	8d	.	.	4b/	.	.
.	8E<	.	.	.	.	.
.	8G#<	.	.	4e	.	.
.	8dJ	.	]	.	.	.
=147	=147	=147	=147	=147	=147	=147
2.AA\ 2.AAA\	8E<L	.	<	4a)	.	.
.	8A<	.	.	.	.	.
.	8c#	.	.	4e	.	>
.	8e	.	.	.	.	.
.	8A<	.	.	(<4a	.	.
.	8cnJ	.	[	.	.	.
=148	=148	=148	=148	=148	=148	=148
2.BB\ 2.BBB\	8F#<L	.	>	4a	.	.
.	8A<	.	.	.	.	.
.	8B<	.	.	4g	.	.
.	8d#X	.	.	.	.	.
.	8A<	.	.	4f#)	.	]]
.	8B<J)	.	]	.	.	.
=149	=149	=149	=149	=149	=149	=149
2.EE\	8r	.	.	(<2.g	.	.
.	(>8B<L	.	.	.	.	.
.	8e	.	.	.	.	.
.	8G<	.	.	.	.	.
.	8B<	.	.	.	.	.
.	8E<J)	.	.	.	.	.
=150	=150	=150	=150	=150	=150	=150
2.E	8r	.	.	2.a#X)	.	.
.	(>8c#L	.	.	.	.	.
.	8g	.	.	.	.	.
.	8A#<X	.	.	.	.	.
.	8c#	.	.	.	.	.
.	8G<J)	.	.	.	.	.
=151	=151	=151	=151	=151	=151	=151
2D#X	8r	.	.	(>4cc#	.	.
.	(>8F#<L	.	.	.	.	.
.	8f#	.	.	4b	.	.
.	8B	.	.	.	.	.
4E	8c#	.	.	4a#X)	.	.
.	8gJ)	.	.	.	.	.
=152	=152	=152	=152	=152	=152	=152
2D#X	8r	.	.	(>2cc#	.	.
.	(>8F#<L	.	.	.	.	.
.	8B<	.	.	.	.	.
.	8f#	.	.	.	.	.
4DD#X\	8f#	.	.	4b)	.	.
.	8F#<J)	.	.	.	.	.
!!LO:LB:g=original
=153	=153	=153	=153	=153	=153	=153
2.DDn\	8r	.	.	(<2.f#	.	.
.	(>8A<L	.	.	.	.	.
.	8d<	.	.	.	.	.
.	8F#<	.	.	.	.	.
.	8A<	.	.	.	.	.
.	8D<J)	.	.	.	.	.
=154	=154	=154	=154	=154	=154	=154
2.D	8r	.	.	2.g#X)	.	.
.	(>8B<L	.	.	.	.	.
.	8fn	.	.	.	.	.
.	8G#X<	.	.	.	.	.
.	8B<	.	.	.	.	.
.	8Fn<J)	.	.	.	.	.
=155	=155	=155	=155	=155	=155	=155
2C#\	8r	.	.	(<4b/	.	.
.	(>8E<L	.	.	.	.	.
.	8e	.	.	4a	.	.
.	8A<	.	.	.	.	.
4D	8B<	.	.	4g#X)	.	.
.	8fnJ)	.	.	.	.	.
=156	=156	=156	=156	=156	=156	=156
2.C#\	8r	.	.	(<2b/	.	.
.	(>8E<L	.	.	.	.	.
.	8A<	.	.	.	.	.
.	8e	.	.	.	.	.
.	8e	.	.	4a)	.	.
.	8E<J)	.	.	.	.	.
=157	=157	=157	=157	=157	=157	=157
[>2.Cn\	8r	.	.	(>2.a	.	<
.	(>8A<L	.	.	.	.	.
.	8cn	.	.	.	.	.
.	8fn	.	.	.	.	.
.	8A<	.	.	.	.	.
.	8cJ	.	.	.	.	.
=158	=158	=158	=158	=158	=158	=158
2.CnX] 2.CCn	8G<L	.	.	2.b-X	.	[
.	8cn	.	.	.	.	.
.	8e	.	.	.	.	.
.	8g	.	.	.	.	.
.	8G<	.	.	.	.	.
.	[<8eJ	.	.	.	.	.
=159	=159	=159	=159	=159	=159	=159
2.BB\ 2.BBB\	8eL]	.	<	2.bn)	.	<
.	8G<	.	.	.	.	.
.	8e	.	.	.	.	.
.	8g	.	.	.	.	.
.	8G<	.	.	.	.	.
.	8eJ	.	.	.	.	.
!!LO:LB:g=original
=160	=160	=160	=160	=160	=160	=160
2.BB-X [<2.BBB-X	8G<L	.	.	(>2.ccn	.	.
.	8cn	.	.	.	.	.
.	8e	.	.	.	.	.
.	8g	.	.	.	.	.
.	8G<	.	.	.	.	.
.	[<8eJ	.	.	.	.	.
=161	=161	=161	=161	=161	=161	=161
2.BB-\ 2.BBB-X\]	8eL]	.	.	2cc#X)	.	.
.	8G<	.	.	.	.	.
.	8e	.	.	.	.	.
.	8g	.	.	.	.	.
.	8G#X<	.	.	(>4dd	.	.
.	8fnJ	.	[	.	.	.
=162	=162	=162	=162	=162	=162	=162
2AA\ 2AAA\	8f#XL	.	.	4dd	.	[
.	8A<	.	.	.	.	.
.	8F#<	.	.	4d	.	.
.	8A<	.	.	.	.	.
4BB 4BBB	8G<	.	.	4g)	.	.
.	8d<J)	.	.	.	.	.
=163	=163	=163	=163	=163	=163	=163
2.AA\ 2.AAA\	(>8d<L	.	>	(<2.e	.	.
.	8E<	.	.	.	.	.
.	8A<	.	.	.	.	.
.	8d	.	.	.	.	.
.	8c#X<	.	.	.	.	.
.	8G<J	.	.	.	.	.
.	.	.	]	.	.	.
=164	=164	=164	=164	=164	=164	=164
2DD	8d<L	.	<	4d)	.	.
.	8F#<	.	.	.	.	.
.	8A<	.	.	4r	.	.
.	8f#	.	.	.	.	.
4AA\ 4AAA\	8f#	.	.	4c#	.	.
.	8F#<J)	.	[[	.	.	.
=165!|:	=165!|:	=165!|:	=165!|:	=165!|:	=165!|:	=165!|:
2.AA\ (<2.AAA\	(>8f#L	.	<	(<2c#	.	.
.	8c#	.	.	.	.	.
.	8f#	.	.	.	.	.
.	8F#<	.	.	.	.	.
.	8c#	.	.	4f#)	.	.
.	8C#<J)	.	.	.	.	.
=166	=166	=166	=166	=166	=166	=166
2.BB\ 2.BBB\	8r	.	.	(<2f#	.	.
.	(>8dL	.	.	.	.	.
.	8f#	.	.	.	.	.
.	8G#X<	.	.	.	.	.
.	8d	.	.	4g#X)	.	.
.	8F#<J)	.	.	.	.	.
!!LO:PB:g=original
=167	=167	=167	=167	=167	=167	=167
[<2.C#\ 2.CC#\)	8r	.	.	(<4f#	.	<
.	(>8G#X<L	.	.	.	.	.
.	8c#	.	.	4e#X	.	.
.	8e#X	.	.	.	.	.
.	8G#<	.	.	4cc#)	.	.
.	8c#J)	.	[	.	.	[
=168	=168	=168	=168	=168	=168	=168
!	!	!	!LO:HP:b=2	!	!	!
4C#\] 4CC#\	(>8E#X<L	.	<	[>2.cc#	.	.
.	8G#X<	.	.	.	.	.
(>4GG#X\ 4GGG#X\	8c#	.	.	.	.	.
.	8e#X	.	.	.	.	.
4C#\) 4CC#\	8G#<	.	.	.	.	.
.	8c#J	.	.	.	.	.
=169	=169	=169	=169	=169	=169	=169
2.C#\ 2.CC#\	8enL	.	[	(<2cc#]	.	.
.	8G#X<	.	.	.	.	.
.	8c#	.	.	.	.	.
.	8E<	.	.	.	.	.
.	8G#<	.	.	4e	.	.
.	8C#<J)	.	.	.	.	.
=170	=170	=170	=170	=170	=170	=170
2GG#X\ 2GGG#X\	8r	.	.	4e	.	.
.	(>8B<L	.	.	.	.	.
.	8e	.	.	4g#X	.	.
.	8E<	.	.	.	.	.
4AA#X\ 4AAA#X\	8c#	.	.	4f#)	.	.
.	8F#<J)	.	.	.	.	.
=171	=171	=171	=171	=171	=171	=171
[<2.BB\ [<2.BBB\	8r	.	.	(<4e	.	<
.	(>8F#<L	.	.	.	.	.
.	8B<	.	.	4d#X	.	.
.	8d#X	.	.	.	.	.
.	8F#<	.	.	4b/)	.	.
.	8B<J	.	.	.	.	.
=172	=172	=172	=172	=172	=172	=172
!	!	!	!LO:HP:b=2	!	!	!
4BB\] 4BBB\]	8D#X<L	.	<	(<2.b/	.	[
.	8F#<	.	.	.	.	.
(>4FF#\ 4FFF#\	8B<	.	.	.	.	.
.	8d#X	.	.	.	.	.
4BB\) 4BBB\	8F#<	.	.	.	.	.
.	8B<J	.	.	.	.	.
=173	=173	=173	=173	=173	=173	=173
2.BB\ 2.BBB\	8dnL	.	[	2b/	.	.
.	8F#<	.	.	.	.	.
.	8B<	.	.	.	.	.
.	8Dn<	.	.	.	.	.
.	8F#<	.	.	4d	.	.
.	8B<J)	.	.	.	.	.
!!LO:LB:g=original
=174	=174	=174	=174	=174	=174	=174
2.GG#X\ 2.GGG#X\	8r	.	.	4d	.	.
.	(>8E<L	.	.	.	.	.
.	8B<	.	.	4f#	.	.
.	8d	.	.	.	.	.
.	8E<	.	.	4e)	.	.
.	8B<J)	.	.	.	.	.
=175	=175	=175	=175	=175	=175	=175
2.AA\ 2.AAA\	8r	.	.	(<4d	.	.
.	(>8E<L	.	.	.	.	.
.	8Gn<	.	.	4c#	.	.
.	8e	.	.	.	.	.
.	8e	.	.	4g)	.	.
.	8E<J)	.	.	.	.	.
=176	=176	=176	=176	=176	=176	=176
!	!	!	!LO:HP:b=2	!	!	!
4BB-X\ 4BBB-X\	8rc<	.	<	[<2.g	.	.
.	(>8E<L	.	.	.	.	.
(>4AA\ 4AAA\	8G<	.	.	.	.	.
.	8c#<	.	.	.	.	.
4E\) 4EE\	8c#<	.	.	.	.	.
.	8G<J)	.	.	.	.	.
=177	=177	=177	=177	=177	=177	=177
2E\ 2EE\	8r	.	[	4g]	.	.
.	(>8G<L	.	.	.	.	.
.	8c#X	.	.	4g	.	.
.	8b	.	>	.	.	.
4AA\ 4AAA\	8b	.	.	4g	.	.
.	8G<J	.	.	.	.	.
=178	=178	=178	=178	=178	=178	=178
2C#\ 2CC#\	8eL	.	.	(<2g	.	.
.	8G<	.	.	.	.	.
.	8A<	.	.	.	.	.
.	8a	.	.	.	.	.
4D 4DD	8A<	.	.	4f#)	.	.
.	8dJ)	.	]	.	.	.
=179	=179	=179	=179	=179	=179	=179
2.AA\	8r	.	.	(<2.d#X	.	.
.	(>8A<L	.	.	.	.	.
.	8cn	.	.	.	.	.
.	8F#<	.	.	.	.	.
.	8A<	1	.	.	.	.
.	8aJ	.	.	.	.	.
=180	=180	=180	=180	=180	=180	=180
2.AAA\	8G<L	1	.	2e	.	.
.	8A<	.	.	.	.	.
.	8c#X	.	.	.	.	.
.	8G<	2	.	.	.	.
.	8A<	1	.	4e#X)	.	.
.	8aJ)	.	.	.	.	.
!!LO:LB:g=original
=181	=181	=181	=181	=181	=181	=181
2.DD\	8r	.	.	(<2.f#	.	.
.	(>8A<L	.	.	.	.	.
.	8d	.	.	.	.	.
.	8F#<	.	.	.	.	.
.	8A<	.	.	.	.	.
.	8D<J)	.	.	.	.	.
=182	=182	=182	=182	=182	=182	=182
2.D	8r	.	.	2.g#X)	.	.
.	(>8BL	.	.	.	.	.
.	8fn	.	.	.	.	.
.	8G#<X	.	.	.	.	.
.	8B<	.	.	.	.	.
.	8D<J)	.	.	.	.	.
=183	=183	=183	=183	=183	=183	=183
2C#\	8r	.	.	(</4b	.	.
.	(>8E<L	.	.	.	.	.
.	8e	.	.	4a	.	.
.	8A<	.	.	.	.	.
4D	8B<	.	.	4g#X)	.	.
.	8fnJ)	.	.	.	.	.
=184	=184	=184	=184	=184	=184	=184
2C#\	8r	.	.	(</2b	.	.
.	(>8E<L	.	.	.	.	.
.	8A<	.	.	.	.	.
.	8e	.	.	.	.	.
4CC#\	8e	.	.	4a)	.	.
.	8E<J)	.	.	.	.	.
=185	=185	=185	=185	=185	=185	=185
2.CCn\	8r	.	.	(<2.e	.	.
.	(>8G<L	.	.	.	.	.
.	8cn<	.	.	.	.	.
.	8E<	.	.	.	.	.
.	8G<	.	.	.	.	.
.	8Cn<J)	.	.	.	.	.
=186	=186	=186	=186	=186	=186	=186
2.Cn\	8r	.	.	2.f#)	.	.
.	(>8A<L	.	.	.	.	.
.	8e-X	.	.	.	.	.
.	8F#X<	.	.	.	.	.
.	8A<	.	.	.	.	.
.	8E-X<J)	.	.	.	.	.
=187	=187	=187	=187	=187	=187	=187
2BB\	8r	.	.	(<4a	.	.
.	(>8D<L	.	.	.	.	.
.	8d	.	.	4g	.	.
.	8G<	.	.	.	.	.
4Cn\	8A<	.	.	4f#)	.	.
.	8e-XJ)	.	.	.	.	.
!!LO:LB:g=original
=188	=188	=188	=188	=188	=188	=188
2.BB\	8r	.	.	(<2a	.	.
.	(>8D<L	.	.	.	.	.
.	8G<	.	.	.	.	.
.	8d	.	.	.	.	.
.	8d	.	.	4g)	.	.
.	[>8G<J)	.	.	.	.	.
=189	=189	=189	=189	=189	=189	=189
[>2.BB-X\	8G<L]	.	.	(<2.g	.	<
.	8B-X<	.	.	.	.	.
.	8e-X	.	.	.	.	.
.	8g	.	.	.	.	.
.	8G<	.	<	.	.	.
.	8B-<J	.	.	.	.	.
=190	=190	=190	=190	=190	=190	=190
2.BB-X\] 2.BBB-X\	8Fn<L	.	.	2.a-X	.	.
.	8B-X<	.	.	.	.	.
.	8d	.	.	.	.	.
.	8fn	.	.	.	.	.
.	8F<	.	.	.	.	.
.	[<8dJ	.	.	.	.	.
=191	=191	=191	=191	=191	=191	=191
2.AA\ 2.AAA\	8dL]	.	.	2.an)	.	.
.	8Fn<	.	.	.	.	.
.	8d	.	.	.	.	.
.	8fn	.	.	.	.	.
.	8F<	.	.	.	.	.
.	[<8dJ	.	.	.	.	.
=192	=192	=192	=192	=192	=192	=192
2.AA-X\ 2.AAA-X\	8dL]	.	.	(>2.b-X	.	[
.	8Fn<	.	.	.	.	.
.	8d	.	.	.	.	.
.	8fn	.	.	.	.	.
.	8F<	.	.	.	.	.
.	[<8dJ	.	[	.	.	.
=193	=193	=193	=193	=193	=193	=193
2GG\ 2GGG\	8dL]	.	.	4bn	.	.
.	8Fn<	.	.	.	.	.
.	8d	.	.	4.cc#)	.	.
.	8fn	.	>	.	.	.
4GG#X\ 4GGG#X\	8B	.	.	.	.	.
.	8fJ	.	.	(>8dd	.	.
=194	=194	=194	=194	=194	=194	=194
2AA\ 2AAA\	8f#XL	.	.	2d	.	.
.	8A<	.	.	.	.	.
.	8F#<	.	.	.	.	.
.	8A<	.	.	.	.	.
4BB\ 4BBB\	8G<	.	.	4g)	.	.
!	!LO:TX:t=P:the slur has no beginning:problem	!	!	!	!	!
.	(>8dJ	.	]	.	.	.
!!LO:LB:g=original
=195	=195	=195	=195	=195	=195	=195
!!LO:TX:a:B:t=1|a.
*>A1	*>A1	*>A1	*>A1	*>A1	*	*>A1
!	!LO:TX:t=P:double volte signs:problem	!	!	!	!	!
2.AA\ 2.AAA\	8dL	.	>	(<2.e	.	.
.	8E<	.	.	.	.	.
.	8A<	.	.	.	.	.
.	8d	.	.	.	.	.
.	8c#	.	.	.	.	.
.	[>8G<J	.	]	.	.	.
=196	=196	=196	=196	=196	=196	=196
2DD\	8G<L]	.	]<	4e	.	.
.	8F#<	.	.	.	.	.
.	8A<	.	.	4d	.	.
.	8d	.	.	.	.	.
4AA\ 4AAA\	8f#	.	.	4c#)	.	.
.	8F#<J)	.	[	.	.	.
*ped	*	*	*	*	*	*
=197:|!	=197:|!	=197:|!	=197:|!	=197:|!	=197:|!	=197:|!
!!LO:TX:a:B:t=2|a.
*>A2	*>A2	*>A2	*>A2	*>A2	*	*>A2
[>2.AA\ [<2.AAA\	(>8c#L	.	[ p	(<2.e	.	.
.	8G<	.	>	.	.	.
.	8B-X<	.	.	.	.	.
.	8E<	.	.	.	.	.
.	8G<	.	.	.	.	.
*Xped	*	*	*	*	*	*
.	.	.	.	.	.	.
.	8B-<J	.	]	.	.	.
=198	=198	=198	=198	=198	=198	=198
*>C	*>C	*>C	*>C	*>C	*	*>C
*ped	*	*	*	*	*	*
2.AA\_> 2.AAA\_<	8d#XL	.	]	2.f#)	.	.
.	8A<	.	.	.	.	.
.	8Bn<	.	.	.	.	.
.	8F#<	.	.	.	.	.
.	8A<	.	.	.	.	.
*Xped	*	*	*	*	*	*
.	8B<J	.	.	.	.	.
=199	=199	=199	=199	=199	=199	=199
*ped	*	*	*	*	*	*
2.AA\_> 2.AAA\_<	8eL	.	.	(<2.g	.	.
.	8B-X	.	.	.	.	.
.	8c#X	.	.	.	.	.
.	8E<	.	.	.	.	.
.	8B-X<	.	.	.	.	.
*Xped	*	*	*	*	*	*
.	8c#J	.	.	.	.	.
=200	=200	=200	=200	=200	=200	=200
*ped	*	*	*	*	*	*
2.AA\] 2.AAA\]	8fnL	.	.	2.g#X	.	.
.	8B-X	.	.	.	.	.
.	8d	.	.	.	.	.
.	8Fn<	.	.	.	.	.
.	8B-	.	.	.	.	.
*Xped	*	*	*	*	*	*
.	8dJ	.	.	.	.	.
=201	=201	=201	=201	=201	=201	=201
*ped	*	*	*	*	*	*
2.AA\ 2.AAA\	8c#L	.	.	4a)	.	.
.	8A<	.	.	.	.	.
.	8c#	.	.	4r	.	.
.	8E<	.	.	.	.	.
.	8A<	.	.	4r	.	.
*Xped	*	*	*	*	*	*
.	8c#J	.	.	.	.	.
!!LO:PB:g=original
=202	=202	=202	=202	=202	=202	=202
*ped	*	*	*	*	*	*
2.DD\	8dL	.	<	(<2.f#tt>	.	.
.	8A<	.	.	.	.	.
.	8cn	.	.	.	.	.
.	8D<	.	.	.	.	.
.	8A<	.	.	.	.	.
*Xped	*	*	*	*	*	*
.	8cJ	.	.	.	.	.
.	.	.	.	8qqe/L	.	.
.	.	.	.	8qqf#/J	.	.
=203	=203	=203	=203	=203	=203	=203
*ped	*	*	*	*	*	*
2.GG\	8B<L	.	.	2.g	.	.
.	8G<	.	.	.	.	.
.	8B<	.	.	.	.	.
.	8D<	.	.	.	.	.
.	8B<	.	.	.	.	.
*Xped	*	*	*	*	*	*
.	8fnJ	.	[	.	.	.
=204	=204	=204	=204	=204	=204	=204
*	*^	*	*	*	*	*
*ped	*	*	*	*	*	*	*
!	!LO:N:vis=2	!	!	!	!	!	!
2.EE\	8eL	2e\	.	>	2.g#X	.	.
.	8B</	.	.	.	.	.	.
.	8d	.	.	.	.	.	.
.	8E<	.	.	.	.	.	.
.	8B<	4rgyy	.	.	.	.	.
*Xped	*	*	*	*	*	*	*
.	8dJ	.	.	]	.	.	.
*	*v	*v	*	*	*	*	*
=205	=205	=205	=205	=205	=205	=205
*ped	*	*	*	*	*	*
2.AA\ 2.AAA\	8eL	.	]	2.a)	.	.
.	8A<	.	.	.	.	.
.	8c#X	.	.	.	.	.
.	8E<	.	.	.	.	.
.	8A<	.	.	.	.	.
*Xped	*	*	*	*	*	*
.	8c#J	.	.	.	.	.
=206	=206	=206	=206	=206	=206	=206
*ped	*	*	*	*	*	*
2.EE\	8eL	.	pp	(<2.b-X/	.	.
.	8G<	.	.	.	.	.
.	8d	.	.	.	.	.
.	8E<	.	.	.	.	.
.	8G<	.	.	.	.	.
*Xped	*	*	*	*	*	*
.	8dJ	.	.	.	.	.
=207	=207	=207	=207	=207	=207	=207
*ped	*	*	*	*	*	*
2.AA\ 2.AAA\	8eL	.	.	2.a)	.	.
.	8G<	.	.	.	.	.
.	8c#	.	.	.	.	.
.	8E<	.	.	.	.	.
.	8G<	.	.	.	.	.
*Xped	*	*	*	*	*	*
.	8c#J	.	.	.	.	.
=208	=208	=208	=208	=208	=208	=208
*ped	*	*	*	*	*	*
2.EE\	8eL	.	.	[>2.b-X	.	.
.	8G<	.	.	.	.	.
.	8d	.	.	.	.	.
.	8E<	.	.	.	.	.
.	8G<	.	.	.	.	.
*Xped	*	*	*	*	*	*
.	8dJ	.	.	.	.	.
!!LO:LB:g=original
=209	=209	=209	=209	=209	=209	=209
*ped	*	*	*	*	*	*
4AA 4AAA	4e'>) 4c#X'> 4G<'>	.	.	8b-]	.	.
.	.	.	.	8r	.	.
4r	4r	.	.	(<8a/L	.	.
.	.	.	.	8g	.	.
4r	4r	.	.	8b-X	.	.
.	.	.	.	8aJ	.	.
=210	=210	=210	=210	=210	=210	=210
2.rF	2.rdd	.	.	8g)	.	.
.	.	.	.	8r	.	.
.	.	.	.	(<8fnL	.	.
.	.	.	.	8e	.	.
.	.	.	.	8g	.	.
.	.	.	.	8fJ	.	.
=211	=211	=211	=211	=211	=211	=211
2.rF	2.rdd	.	.	8e)	.	.
.	.	.	.	8r	.	.
.	.	.	.	(>8dL	.	.
.	.	.	.	8c#	.	.
.	.	.	.	8e	.	.
.	.	.	.	8dJ	.	.
*	*	*	*	*clefF4	*	*
=212	=212	=212	=212	=212	=212	=212
2.rF	2.rdd	.	.	8c#)	.	.
.	.	.	.	8r	.	.
.	.	.	.	(>8B-X\L	.	<
.	.	.	.	8A	.	.
.	.	.	.	8cn	.	.
.	.	.	.	8B-J	.	.
.	.	.	.	.	.	[
=213	=213	=213	=213	=213	=213	=213
*k[b-]	*k[b-]	*	*	*k[b-]	*	*
4D\ 4DD\	4a'> 4f 4d'> 4A<'>	.	f	4A)	.	f
4r	4r	.	.	(>\8AL	.	.
.	.	.	.	8B-J)	.	.
4r	4r	.	.	(>\8B-L	.	.
.	.	.	.	8AJ)	.	.
=214	=214	=214	=214	=214	=214	=214
4r	4r	.	.	(>8A\L	.	.
.	.	.	.	8d	.	.
4r	4r	.	.	8c#X	.	.
.	.	.	.	8dJ	.	.
4AA\ 4AAA\	4a'> 4g'> 4c#X'> 4A<'>	.	.	4e)	.	.
=215	=215	=215	=215	=215	=215	=215
4D\ 4DD\	4a'> 4f'> 4d'> 4A<'>	.	.	4f	.	.
4r	4r	.	.	(>8A\L	.	.
.	.	.	.	8B-J)	.	.
4r	4r	.	.	(>8B-\L	.	.
.	.	.	.	8AJ)	.	.
=216	=216	=216	=216	=216	=216	=216
4r	4r	.	.	(>8A\L	.	.
.	.	.	.	8F	.	.
4r	4r	.	.	8E	.	.
.	.	.	.	8DJ	.	.
4E\ 4EE\	4e'> 4d'> 4G#X<'>	.	.	4E)	.	.
!!LO:LB:g=original
=217	=217	=217	=217	=217	=217	=217
*	*^	*	*	*	*	*
4E\ 4AA\	4e'> 4c#X'> 4A<'>	4ryy	.	.	4AA	.	.
4r	(>2a^>	4rc	.	.	4r	.	.
*	*	*	*	*	*clefG2	*	*
!	!	!	!	!LO:DY:rj	!	!	!LO:DY:rj
4A	.	4c#	.	p	(<4e	.	p
=218	=218	=218	=218	=218	=218	=218	=218
!	!LO:TUP:a	!	!	!	!	!	!
!	!LO:TX:t=P:stem-side tuplet number:problem	!	!	!	!	!	!
4A 4D	12aL	4d	.	.	4f)	.	.
.	12b-	.	.	.	.	.	.
.	12aJ	.	.	.	.	.	.
4r	8g#XL	4rA	.	.	(<2d	.	.
.	8bn	.	.	.	.	.	.
*ped	*	*	*	*	*	*	*
4A 4D	8dd	4f	.	.	.	.	.
.	8ffJ	.	.	.	.	.	.
*Xped	*	*	*	*	*	*	*
*	*v	*v	*	*	*	*	*
=219	=219	=219	=219	=219	=219	=219
4A 4AA	4ee'>\) 4cc#X'>\ 4e'>\	.	.	4a)	.	.
4r	4r	.	.	(<2e	.	.
4A 4AA	(>4a'< 4c#X'<	.	.	.	.	.
=220	=220	=220	=220	=220	=220	=220
*	*^	*	*	*	*	*
!	!LO:TUP:a	!	!	!	!	!	!
!	!LO:TX:t=P:stem-side tuplet number:problem	!	!	!	!	!	!
4A 4D	12aL	4d	.	.	4f)	.	.
.	12b-	.	.	.	.	.	.
.	12aJ	.	.	.	.	.	.
4r	8g#XL	4rA	.	.	(<2d	.	.
*ped	*	*	*	*	*	*	*
.	8bn	.	.	<	.	.	.
4A 4D	8dd	4f	.	.	.	.	.
*Xped	*	*	*	*	*	*	*
.	8ffJ	.	.	[[	.	.	.
*	*v	*v	*	*	*	*	*
=221	=221	=221	=221	=221	=221	=221
*ped	*	*	*	*	*	*
4A 4AA	4ee'>\) 4cc#X'>\ 4e'>\	.	[ f	2.a)	.	.
*clefG2	*8va	*	*	*	*	*
8aaL	(>8aaaL	.	.	.	.	.
8dd#X	8ddd#X	.	.	.	.	.
8ee	8eee	.	.	.	.	.
8ffJ	8fffJ	.	.	.	.	.
=222	=222	=222	=222	=222	=222	=222
8eeL	8eeem>L	.	.	(<2e	.	.
8a	8aa	.	.	.	.	.
8b-	8bb-	.	.	.	.	.
8cc	8ccc	.	.	.	.	.
8b-	8bb-	.	.	4cc#X)	.	.
8g#XJ	8gg#XJ	.	.	.	.	.
*	*X8va	*	*	*	*	*
=223	=223	=223	=223	=223	=223	=223
8aL	8aaL	.	.	2.cc#X	.	.
8b-	8bb-	.	.	.	.	.
8a	8aa	.	.	.	.	.
*Xped	*	*	*	*	*	*
8d#X	8dd#X	.	.	.	.	.
8e	8ee	.	.	.	.	.
8fJ	8ffJ	.	.	.	.	.
*clefF4	*	*	*	*clefF4	*	*
!!LO:LB:g=original
=224	=224	=224	=224	=224	=224	=224
8eL	8eem>L	.	[	2.rF	.	.
8A	8a	.	.	.	.	.
8B-	8b-	.	.	.	.	.
8c	8cc	.	.	.	.	.
8B-	8b-	.	.	.	.	.
8G#XJ	8g#XJ	.	.	.	.	.
=225	=225	=225	=225	=225	=225	=225
4A 4AA	4a'<)	.	.	8A	.	.
.	.	.	.	8r	.	.
4r	4r	.	.	(>8B-\L	.	.
.	.	.	.	8A	.	.
4r	4r	.	.	8c	.	.
.	.	.	.	8B-J	.	.
=226	=226	=226	=226	=226	=226	=226
4AA'< 4AAA'<	4a'< 4e'< 4c#X'<	.	p	8G)	.	.
.	.	.	.	8r	.	.
4r	4r	.	.	(>8A\L	.	.
.	.	.	.	8G	.	.
4r	4r	.	.	8B-	.	.
.	.	.	.	8AJ	.	.
=227	=227	=227	=227	=227	=227	=227
4AA'< 4AAA'<	4a'< 4d'< 4B-X'<	.	.	8F)	.	.
.	.	.	.	8r	.	.
4r	4r	.	.	(>8G\L	.	.
.	.	.	.	8F	.	.
4r	4r	.	.	8A	.	.
.	.	.	.	8GJ	.	.
=228	=228	=228	=228	=228	=228	=228
4AA'< 4AAA'<	4a'< 4c#X'< 4A'<	.	.	8E)	.	.
.	.	.	.	8r	.	.
4r	4r	.	.	(>8F\L	.	<
.	.	.	.	8E	.	.
!	!	!	!LO:DY:rj	!	!	!
4AA'<	4a'< 4A'<	.	f	8G	.	.
.	.	.	.	8FJ	.	.
=229	=229	=229	=229	=229	=229	=229
4D'< 4DD'<	4a'< 4f'< 4d'< 4A'<	.	.	4D)	.	[
8AL	8aL	.	.	4r	.	.
8B-	8b-	.	.	.	.	.
8B-	8b-	.	.	4r	.	.
8AJ	8aJ	.	.	.	.	.
=230	=230	=230	=230	=230	=230	=230
8AL	8aL	.	.	4r	.	.
8d	8dd	.	.	.	.	.
8c#X	8cc#X	.	.	4r	.	.
8dJ	8ddJ	.	.	.	.	.
!	!	!	!	!	!	!LO:DY:rj
4A 4AA	4ee'> 4cc#'> 4a'> 4g'>	.	.	4A 4E 4AA	.	f
!!LO:PB:g=original
=231	=231	=231	=231	=231	=231	=231
4A 4D	4ff'> 4dd'> 4a'> 4f'>	.	.	4A 4D	.	.
8AL	8aL	.	.	4r	.	.
8B-	8b-	.	.	.	.	.
8B-	8b-	.	.	4r	.	.
8AJ	8aJ	.	.	.	.	.
=232	=232	=232	=232	=232	=232	=232
8AL	(>8aL	.	.	4r	.	.
8F	8f	.	.	.	.	.
8E	8e	.	.	4r	.	.
8DJ	8dJ	.	.	.	.	.
4E\ 4AA\	4e'>) 4c'> 4A<'>	.	.	(>4E	.	.
=233	=233	=233	=233	=233	=233	=233
*	*^	*	*	*	*	*
4E\ 4AA\	4e 4c 4A<	4ryy	.	.	4c)	.	.
2D^<\	(>2f#X	8cL	.	.	(>8A\L	.	.
.	.	8d	.	.	8B-)	.	.
.	.	8c	.	.	(>8B-	.	.
.	.	8dJ	.	.	8AJ	.	.
=234	=234	=234	=234	=234	=234	=234	=234
4GG	4g	8B-L	.	.	4G)	.	.
.	.	8d	.	.	.	.	.
2C^< 2CC	4d	8B-	.	.	(>8G\L	.	.
.	.	8c	.	.	8A)	.	.
.	4e	8B-	.	.	(>8A	.	.
.	.	8cJ	.	.	8GJ	.	.
=235	=235	=235	=235	=235	=235	=235	=235
4FF	4f	8A<L	.	.	4F)	.	.
.	.	8c<	.	.	.	.	.
2BBn^< 2BBBn	4c	8A<	.	.	(>8F\L	.	.
.	.	8Bn<	.	.	8G)	.	.
.	4d	8A<	.	.	(>8G	.	.
.	.	8B<J	.	.	8FJ	.	.
=236	=236	=236	=236	=236	=236	=236	=236
4EE\	4e	8G#X<L	.	.	4E)	.	.
.	.	8Bn<	.	.	.	.	.
2AA^< 2AAA	4Bn	8Gn<	.	.	(>8E\L	.	.
.	.	8A<	.	.	8F)	.	.
.	4c#X	8G<	.	.	(>8F	.	.
.	.	8A<J	.	.	8EJ	.	.
*	*v	*v	*	*	*	*	*
=237	=237	=237	=237	=237	=237	=237
*ped	*	*	*	*	*	*
4BB- 4BBB-	4d) 4F<	.	.	2.D)	.	.
*clefG2	*8va	*	*	*	*	*
8bb-L	(>8bbb-L	.	>	.	.	.
8een	8eeen	.	.	.	.	.
8ff	8fff	.	.	.	.	.
8ggJ	8gggJ	.	.	.	.	.
!!LO:LB:g=original
=238	=238	=238	=238	=238	=238	=238
8ff/L	8fffM>L	.	.	(>2c	.	<
8a	8aa	.	.	.	.	.
8b-	8bb-	.	.	.	.	.
8cc	8ccc	.	.	.	.	.
8b-	8bb-	.	.	4B-)	.	.
*Xped	*	*	*	*	*	*
.	.	.	.	.	.	.
8eJ	8eeJ	.	.	.	.	.
*	*X8va	*	*	*clefG2	*	*
=239	=239	=239	=239	=239	=239	=239
8f/L	8ffL	.	.	2.a-X	.	[
8g	8gg	.	.	.	.	.
8f	8ff	.	.	.	.	.
8A	8a	.	.	.	.	.
8B-	8b-	.	.	.	.	.
8cJ	8ccJ	.	.	.	.	.
*clefF4	*	*	*	*	*	*
=240	=240	=240	=240	=240	=240	=240
8B-L	8b-M<L	.	.	2.rdd	.	.
8E	8e	.	.	.	.	.
8F	8f	.	.	.	.	.
8GJ	8gJ	.	.	.	.	.
4F	4f)	.	]	.	.	.
=241	=241	=241	=241	=241	=241	=241
!	!	!	!	!	!	!LO:DY:rj
4r	4r	.	.	(<2.f	.	f
4r	4r	.	.	.	.	.
4BB-\ 4BBB-\	4b-'> 4d'> 4A-X<'>	.	.	.	.	.
=242	=242	=242	=242	=242	=242	=242
4r	4r	.	.	4B-	.	.
4r	4r	.	.	4e-X	.	.
4E-X\ 4EE-X\	4g'> 4e-X'> 4B-<'> 4G<'>	.	.	4d)	.	.
=243	=243	=243	=243	=243	=243	=243
4r	4r	.	.	(<2.c#X	.	.
4En\ 4EEn\	4a'> 4g'> 4A<'>	.	<	.	.	.
4AA 4AAA	4aa'> 4gg'> 4a'>	.	.	.	.	.
.	.	.	[	.	.	.
=244	=244	=244	=244	=244	=244	=244
4r	4r	.	.	2.d)	.	.
4D\ 4DD\	4a'> 4d'> 4A<'>	.	.	.	.	.
4f 4d 4A	4aa'> 4ff'> 4a'>	.	.	.	.	.
*	*	*	*	*clefF4	*	*
=245	=245	=245	=245	=245	=245	=245
4r	4r	.	.	(>2.c	.	.
*ped	*	*	*	*	*	*
4D 4DD	4a'> 4f#X'> 4e-X'>	.	.	.	.	.
4a> 4f> 4e> 4c>	4aa'> 4ff#X'> 4ee-X'> 4cc'>	.	.	.	.	.
*Xped	*	*	*	*	*	*
.	.	.	.	.	.	.
!!LO:LB:g=original
=246	=246	=246	=246	=246	=246	=246
4r	4r	.	.	4F#X	.	.
*ped	*	*	*	*	*	*
4D 4DD	4f#X'> 4e-X'> 4c'>	.	.	4B-	.	.
4f> 4e> 4c>	4ff#X'> 4ee-X'> 4cc'>	.	.	4A)	.	.
*Xped	*	*	*	*	*	*
=247	=247	=247	=247	=247	=247	=247
4r	4r	.	.	2.G	.	.
*ped	*	*	*	*	*	*
!	!LO:TX:b:t=dim _:problem:dynamics with extention lines	!	!LO:HP:i:t=dim:ext=ud	!	!	!
4D 4DD	4g'> 4e-X'> 4B-'>	.	>	.	.	.
4g> 4e> 4B->	4gg'> 4ee-X'> 4b-'>	.	.	.	.	.
*Xped	*	*	*	*	*	*
=248	=248	=248	=248	=248	=248	=248
4r	4r	.	.	(>4C#X	.	.
*ped	*	*	*	*	*	*
4D\ 4DD\	4c#X'> 4B-'> 4G<'>	.	.	4F	.	.
4c#X 4B- 4G	4cc#X'> 4b-'> 4g'>	.	.	4E)	.	.
*Xped	*	*	*	*	*	*
=249	=249	=249	=249	=249	=249	=249
4r	4r	.	.	(>2.E-X	.	.
*ped	*	*	*	*	*	*
4DD\	4cn'> 4G<'>	.	.	.	.	.
4cn 4G	4ccn'> 4g'>	.	.	.	.	.
*Xped	*	*	*	*	*	*
.	.	.	.	.	.	.
=250	=250	=250	=250	=250	=250	=250
4r	4r	.	.	2.D)	.	.
*ped	*	*	*	*	*	*
4DD\	4c<'> 4A<'>	.	.	.	.	.
4A	4f#X'< 4c'<	.	.	.	.	.
*Xped	*	*	*	*	*	*
.	.	.	.	.	.	.
=251	=251	=251	=251	=251	=251	=251
4r	4r	.	]	(<2.BB-	.	.
*ped	*	*	*	*	*	*
4DD'<	4r	.	.	.	.	.
4r	4g'> 4d'> 4G<'>	.	.	.	.	>
=252	=252	=252	=252	=252	=252	=252
*Xped	*	*	*	*	*	*
4r	4r	.	.	2.GG	.	.
[<2DD	4r	.	.	.	.	.
.	4e 4c#X 4B-	.	.	.	.	.
=253	=253	=253	=253	=253	=253	=253
*	*^	*	*	*	*	*
*ped	*	*	*	*	*	*	*
4DD\]	4f#X 4d 4A<	4ryy	.	pp	4DD)	.	.
4r	(>2dd^>	4rcyy	.	.	(<8DDL	.	.
.	.	.	.	.	8EE-XJ)	.	.
!	!	!LO:TX:t=P:note-position:problem	!	!	!	!	!
4a> 4d> 4A	.	4f#/	.	.	(<8EE-L	.	.
*Xped	*	*	*	*	*	*	*
.	.	.	.	.	8DDJ)	.	.
!!LO:LB:g=original
=254	=254	=254	=254	=254	=254	=254	=254
*ped	*	*	*	*	*	*	*
!	!LO:TUP:a	!	!	!	!	!	!
!	!LO:TX:t=P:stem-side tuplet number:problem	!LO:TX:t=P:note-position:problem	!	!	!	!	!
4b-> 4d> 4B->	12ddL	4g	.	.	(<4DD	.	<
.	12ee	.	.	.	.	.	.
.	12ddJ	.	.	.	.	.	[
4r	8cc#XL	4cc#X	.	.	2GG	.	>
*Xped	*	*	*	*	*	*	*
.	8ee	.	.	.	.	.	.
*ped	*	*	*	*	*	*	*
4g 4d 4G	8gg	4b-X	.	.	.	.	]
.	8bb-XJ	.	.	.	.	.	.
*Xped	*	*	*	*	*	*	*
=255	=255	=255	=255	=255	=255	=255	=255
*ped	*	*	*	*	*	*	*
4d 4D	4aa) 4ff#X 4a	4reeeyy	.	.	4DD)	.	.
4r	(>2dd^>	4reyy	.	.	(8DDL	.	]
.	.	.	.	.	8EE-XJ)	.	.
!	!	!LO:TX:t=P:note-position:problem	!	!	!	!	!
4a> 4d> 4A	.	4f#X/	.	.	(8EE-L	.	.
*Xped	*	*	*	*	*	*	*
.	.	.	.	.	8DDJ)	.	.
=256	=256	=256	=256	=256	=256	=256	=256
*ped	*	*	*	*	*	*	*
!	!LO:TX:t=P:stem-side tuplet number:problem	!	!	!	!	!	!
!	!LO:TUP:a	!LO:TX:t=P:note-position:problem	!	!	!	!	!
4b-> 4d> 4B-	12ddL	4g\	.	.	(<4DD	.	<
.	12ee	.	.	.	.	.	.
.	12ddJ	.	.	.	.	.	[
4r	8cc#XL	4cc#X	.	.	2GG	.	>
.	8ee	.	.	.	.	.	.
4g 4d 4G	8gg	4b-	.	.	.	.	]
*Xped	*	*	*	*	*	*	*
.	8bb-J	.	.	.	.	.	.
*	*v	*v	*	*	*	*	*
=257	=257	=257	=257	=257	=257	=257
*ped	*	*	*	*	*	*
4d 4D	4aa) 4ff#X 4a	.	.	4DD)	.	.
4r	4r	.	.	(<8DDL	.	]
.	.	.	.	8EE-X)	.	.
!	!	!	!	!LO:TX:b:i:t=smorz.	!	!
4r	4r	.	.	(<8EE-	.	.
.	.	.	.	8DDJ)	.	.
=258	=258	=258	=258	=258	=258	=258
4a> 4d 4A	4ff#X'>/ 4dd'>/ 4f#X'>/	.	.	4r	.	.
4r	4r	.	.	(<8DDL	.	.
.	.	.	.	8EE-X)	.	.
4r	4r	.	.	(<8EE-	.	.
*Xped	*	*	*	*	*	*
.	.	.	.	8DDJ)	.	.
=259	=259;	=259;>	=259	=259;>	=259	=259
4d'> 4A'> 4D'>	4ddd'> 4ff#X'> 4dd'>	.	ff	4A 4D 4AA 4DD	.	ff
4r	4r	.	.	4r	.	.
4r	4r	.	.	4r	.	.
==	==	==	==	==	==	==
*-	*-	*-	*-	*-	*-	*-
!!!RDF**kern: > = above
!!!RDF**kern: < = below
!!!RDF**kern: N = linked
!!!RDF**dynam: < = "cresc.", fontstyle="italic"
!!!RDF**dynam: > = "dim.", fontstyle="italic"
!!!ENC: Jędrzej Mróz
!!!END: 2020-02-28
!!!EED: Mateusz Mrugas
!!!EST: 2020-03-04
!!!RDF**kern: j = marked note, color="magenta", text="extra)"
